!!!!SEGMENT: pl-wtm--r-692-m--005_moniuszko-stanislaw--sonety-krymskie-ostatni-sonet.krn
!!!cenid: 18xx:2931
!!!COM: Moniuszko, Stanisław
!!!COM-rismid: pe30008351
!!!CDT: 1819/05/05-1872/06/04
!!!CNT: Polish
!!!OTL: Sonety krymskie – Ostatni sonet
!!!PDT:
!!!AGN: Secular; Sonnet
!!!SMS-siglum: PL-Wtm
!!!SMS-shelfmark: R 692/M
!!!SMS-shelfwork: 005 G
!!!SMS-variant:
!!!SMS-altvar:
!!!NIFC-rismid: 1001095954
!!!URL-scan: http://repozytorium.nifc.pl/skany/pl-wtm-nut--r692m
!!!ONB-nifc: UWAGA: zbiór zawiera: 1. Burza, 2. Ruiny, 3. Noc, 4. Hymn Czatyrdah, 5. Ostatni sonet
**kern	**kern	**dynam	**kern	**text	**kern	**text	**dynam	**kern	**text	**dynam	**kern	**text	**dynam	**kern	**text	**dynam
*	*	*	*	*	*group1	*	*	*group1	*	*	*group1	*	*	*group1	*	*
*	*	*	*	*	*I""Chór	*	*	*I""Chór	*	*	*I""Chór	*	*	*I""Chór	*	*
*part6	*part6	*part6	*part5	*part5	*part4	*part4	*part4	*part3	*part3	*part3	*part2	*part2	*part2	*part1	*part1	*part1
*staff7	*staff6	*	*staff5	*staff5	*staff4	*staff4	*	*staff3	*staff3	*	*staff2	*staff2	*	*staff1	*staff1	*
*I"[Fortepian]	*I"[Fortepian]	*	*I"[Tenore solo]	*	*	*	*	*	*	*	*	*	*	*	*	*
*clefF4	*clefG2	*	*clefG2	*	*clefF4	*	*	*clefG2	*	*	*clefG2	*	*	*clefG2	*	*
*	*	*	*ITrd8c12	*	*	*	*	*ITrd8c12	*	*	*	*	*	*	*	*
*k[f#c#g#]	*k[f#c#g#]	*	*k[f#c#g#]	*	*k[f#c#g#]	*	*	*k[f#c#g#]	*	*	*k[f#c#g#]	*	*	*k[f#c#g#]	*	*
*f#:	*f#:	*	*f#:	*	*f#:	*	*	*f#:	*	*	*f#:	*	*	*f#:	*	*
*M4/4	*M4/4	*	*M4/4	*	*M4/4	*	*	*M4/4	*	*	*M4/4	*	*	*M4/4	*	*
*met(c)	*met(c)	*	*met(c)	*	*met(c)	*	*	*met(c)	*	*	*met(c)	*	*	*met(c)	*	*
=1	=1	=1	=1	=1	=1	=1	=1	=1	=1	=1	=1	=1	=1	=1	=1	=1
!	!LO:TX:t=P:problem:znaki: f# cc# g#	!	!LO:TX:t=P:problem:znaki: f# cc# g#	!	!	!	!	!	!	!	!	!	!	!LO:TX:a:t=Nº IX Ostatni Sonet.:color=blue	!	!
!	!	!	!LO:TX:a:i:t=Lento ad libit&colon;	!	!	!	!	!	!	!	!	!	!	!LO:TX:t=P:problem:brak metrum:global	!	!
[1G# [1E	[>1c#	.	1r	.	1ryy	.	.	1ryy	.	.	1ryy	.	.	1ryy	.	.
=2	=2	=2	=2	=2	=2	=2	=2	=2	=2	=2	=2	=2	=2	=2	=2	=2
*	*	*	*2\right	*	*	*	*	*	*	*	*	*	*	*	*	*
!	!	!	!LO:TX:a:t=Solo:color=blue	!	!	!	!	!	!	!	!	!	!	!	!	!
(<1G#] 1E]	(>1c#_>	.	2c#\	Lu-	1ryy	.	.	1ryy	.	.	1ryy	.	.	1ryy	.	.
.	.	.	8G#/	-bię	.	.	.	.	.	.	.	.	.	.	.	.
.	.	.	8G#/	po-	.	.	.	.	.	.	.	.	.	.	.	.
.	.	.	8F#/	-glą-	.	.	.	.	.	.	.	.	.	.	.	.
.	.	.	8G#/	-dać	.	.	.	.	.	.	.	.	.	.	.	.
=3	=3	=3	=3	=3	=3	=3	=3	=3	=3	=3	=3	=3	=3	=3	=3	=3
*2\right	*	*	*	*	*	*	*	*	*	*	*	*	*	*	*	*
2F# 2D#X\	2c#/]	.	4.B/	wspar-	1ryy	.	.	1ryy	.	.	1ryy	.	.	1ryy	.	.
.	.	.	8A/	-ty	.	.	.	.	.	.	.	.	.	.	.	.
2G# 2BB#X\)	2d#X/)	.	8.G#/	na	.	.	.	.	.	.	.	.	.	.	.	.
.	.	.	16F#/	Ju-	.	.	.	.	.	.	.	.	.	.	.	.
.	.	.	8E/	-da-	.	.	.	.	.	.	.	.	.	.	.	.
!	!	!	!LO:SIC:v:s=8D#/	!	!	!	!	!	!	!	!	!	!	!	!	!
.	.	.	8D/	-hu	.	.	.	.	.	.	.	.	.	.	.	.
=4	=4	=4	=4	=4	=4	=4	=4	=4	=4	=4	=4	=4	=4	=4	=4	=4
4r	4r	.	8F#/	ska-	1ryy	.	.	1ryy	.	.	1ryy	.	.	1ryy	.	.
.	.	.	8E/	-le	.	.	.	.	.	.	.	.	.	.	.	.
4G# 4C#\	4e 4c#/	.	4r	.	.	.	.	.	.	.	.	.	.	.	.	.
2r	2r	.	8.G#/	jak	.	.	.	.	.	.	.	.	.	.	.	.
.	.	.	16G#/	spie-	.	.	.	.	.	.	.	.	.	.	.	.
.	.	.	8c#\	-nio-	.	.	.	.	.	.	.	.	.	.	.	.
.	.	.	16d#X\	-ne	.	.	.	.	.	.	.	.	.	.	.	.
.	.	.	16e\	bał-	.	.	.	.	.	.	.	.	.	.	.	.
!!LO:LB:g=original
=5	=5	=5	=5	=5	=5	=5	=5	=5	=5	=5	=5	=5	=5	=5	=5	=5
*^	*	*	*	*	*	*	*	*	*	*	*	*	*	*	*	*
*	*	*Xtuplet	*	*	*	*	*	*	*	*	*	*	*	*	*	*	*
!	!	!LO:TUP:a:problem:klamra łukowa	!	!LO:TX:a:i:t=a tempo, piu agitato.	!	!	!	!	!	!	!	!	!	!	!	!	!
4B/	2E 2BB\	24g#/LL	fp	4e\	-wa-	1ryy	.	.	1ryy	.	.	1ryy	.	.	1ryy	.	.
.	.	24b/	.	.	.	.	.	.	.	.	.	.	.	.	.	.	.
.	.	24ee/	.	.	.	.	.	.	.	.	.	.	.	.	.	.	.
!	!	!LO:TUP:a:problem:klamra łukowa	!	!	!	!	!	!	!	!	!	!	!	!	!	!	!
.	.	24b/	.	.	.	.	.	.	.	.	.	.	.	.	.	.	.
.	.	24g#/	.	.	.	.	.	.	.	.	.	.	.	.	.	.	.
.	.	24e/JJ	.	.	.	.	.	.	.	.	.	.	.	.	.	.	.
!	!	!LO:TUP:a:problem:klamra łukowa	!	!	!	!	!	!	!	!	!	!	!	!	!	!	!
4ryy	.	24B/LL	.	8B\	-ny	.	.	.	.	.	.	.	.	.	.	.	.
.	.	24e/	.	.	.	.	.	.	.	.	.	.	.	.	.	.	.
.	.	24g#/	.	.	.	.	.	.	.	.	.	.	.	.	.	.	.
!	!	!LO:TUP:a:problem:klamra łukowa	!	!	!	!	!	!	!	!	!	!	!	!	!	!	!
.	.	24b/	.	16r	.	.	.	.	.	.	.	.	.	.	.	.	.
.	.	24g#/	.	.	.	.	.	.	.	.	.	.	.	.	.	.	.
.	.	.	.	16B/	to	.	.	.	.	.	.	.	.	.	.	.	.
.	.	24e/JJ	.	.	.	.	.	.	.	.	.	.	.	.	.	.	.
*	*	*rep	*	*	*	*	*	*	*	*	*	*	*	*	*	*	*
!	!	!LO:TUP:a:problem:klamra łukowa	!	!	!	!	!	!	!	!	!	!	!	!	!	!	!
2ryy	2E 2D\	24g#/LL	.	8A/L	w czar-	.	.	.	.	.	.	.	.	.	.	.	.
.	.	24b/	.	.	.	.	.	.	.	.	.	.	.	.	.	.	.
.	.	24ee/	.	.	.	.	.	.	.	.	.	.	.	.	.	.	.
!	!	!LO:TUP:a:problem:klamra łukowa	!	!	!	!	!	!	!	!	!	!	!	!	!	!	!
.	.	24b/	.	8G#/J	.	.	.	.	.	.	.	.	.	.	.	.	.
.	.	24g#/	.	.	.	.	.	.	.	.	.	.	.	.	.	.	.
.	.	24e/JJ	.	.	.	.	.	.	.	.	.	.	.	.	.	.	.
*	*	*Xrep	*	*	*	*	*	*	*	*	*	*	*	*	*	*	*
*	*	*rep	*	*	*	*	*	*	*	*	*	*	*	*	*	*	*
!	!	!LO:TUP:a:problem:klamra łukowa	!	!	!	!	!	!	!	!	!	!	!	!	!	!	!
.	.	24B/LL	.	8F#/	-ne	.	.	.	.	.	.	.	.	.	.	.	.
.	.	24e/	.	.	.	.	.	.	.	.	.	.	.	.	.	.	.
.	.	24g#/	.	.	.	.	.	.	.	.	.	.	.	.	.	.	.
!	!	!LO:TUP:a:problem:klamra łukowa	!	!	!	!	!	!	!	!	!	!	!	!	!	!	!
.	.	24b/	.	8E/	sze-	.	.	.	.	.	.	.	.	.	.	.	.
.	.	24g#/	.	.	.	.	.	.	.	.	.	.	.	.	.	.	.
.	.	24e/JJ	.	.	.	.	.	.	.	.	.	.	.	.	.	.	.
*	*	*Xrep	*	*	*	*	*	*	*	*	*	*	*	*	*	*	*
=6	=6	=6	=6	=6	=6	=6	=6	=6	=6	=6	=6	=6	=6	=6	=6	=6	=6
!	!	!LO:TUP:a:problem:klamra łukowa	!	!	!	!	!	!	!	!	!	!	!	!	!	!	!
2E 2C#\	2ryy	24A/LL	.	4A/	-re-	1ryy	.	.	1ryy	.	.	1ryy	.	.	1ryy	.	.
.	.	24e/	.	.	.	.	.	.	.	.	.	.	.	.	.	.	.
.	.	24a/	.	.	.	.	.	.	.	.	.	.	.	.	.	.	.
!	!	!LO:TUP:a:problem:klamra łukowa	!	!	!	!	!	!	!	!	!	!	!	!	!	!	!
.	.	24a/	.	.	.	.	.	.	.	.	.	.	.	.	.	.	.
.	.	24e/	.	.	.	.	.	.	.	.	.	.	.	.	.	.	.
.	.	24A/JJ	.	.	.	.	.	.	.	.	.	.	.	.	.	.	.
*	*	*rep	*	*	*	*	*	*	*	*	*	*	*	*	*	*	*
!	!	!LO:TUP:a:problem:klamra łukowa	!	!	!	!	!	!	!	!	!	!	!	!	!	!	!
.	.	24A/LL	.	8B\	-gi	.	.	.	.	.	.	.	.	.	.	.	.
.	.	24e/	.	.	.	.	.	.	.	.	.	.	.	.	.	.	.
.	.	24a/	.	.	.	.	.	.	.	.	.	.	.	.	.	.	.
!	!	!LO:TUP:a:problem:klamra łukowa	!	!	!	!	!	!	!	!	!	!	!	!	!	!	!
.	.	24a/	.	8c#\	ści-	.	.	.	.	.	.	.	.	.	.	.	.
.	.	24e/	.	.	.	.	.	.	.	.	.	.	.	.	.	.	.
.	.	24A/JJ	.	.	.	.	.	.	.	.	.	.	.	.	.	.	.
*	*	*Xrep	*	*	*	*	*	*	*	*	*	*	*	*	*	*	*
!	!	!LO:TUP:a:problem:klamra łukowa	!	!	!	!	!	!	!	!	!	!	!	!	!	!	!
4F#/	4BB\	24A/LL	.	8.d\	-sną-	.	.	.	.	.	.	.	.	.	.	.	.
.	.	24d/	.	.	.	.	.	.	.	.	.	.	.	.	.	.	.
.	.	24a/	.	.	.	.	.	.	.	.	.	.	.	.	.	.	.
!	!	!LO:TUP:a:problem:klamra łukowa	!	!	!	!	!	!	!	!	!	!	!	!	!	!	!
.	.	24a/	.	.	.	.	.	.	.	.	.	.	.	.	.	.	.
.	.	24f#/	.	.	.	.	.	.	.	.	.	.	.	.	.	.	.
.	.	.	.	16d\	-wszy	.	.	.	.	.	.	.	.	.	.	.	.
.	.	24d/JJ	.	.	.	.	.	.	.	.	.	.	.	.	.	.	.
!	!	!LO:TUP:a:problem:klamra łukowa	!	!	!	!	!	!	!	!	!	!	!	!	!	!	!
4G#/	4E\	24d/LL	.	8d\	się	.	.	.	.	.	.	.	.	.	.	.	.
.	.	24e/	.	.	.	.	.	.	.	.	.	.	.	.	.	.	.
.	.	24b/	.	.	.	.	.	.	.	.	.	.	.	.	.	.	.
!	!	!LO:TUP:a:problem:klamra łukowa	!	!	!	!	!	!	!	!	!	!	!	!	!	!	!
.	.	24b/	.	16r	.	.	.	.	.	.	.	.	.	.	.	.	.
.	.	24e/	.	.	.	.	.	.	.	.	.	.	.	.	.	.	.
.	.	.	.	16d\	bu-	.	.	.	.	.	.	.	.	.	.	.	.
.	.	24B/JJ	.	.	.	.	.	.	.	.	.	.	.	.	.	.	.
=7	=7	=7	=7	=7	=7	=7	=7	=7	=7	=7	=7	=7	=7	=7	=7	=7	=7
!	!	!LO:SIC:v:s=16A/LL	!	!	!	!	!	!	!	!	!	!	!	!	!	!	!
!	!	!LO:TUP:a:problem:klamra łukowa	!	!	!	!	!	!	!	!	!	!	!	!	!	!	!
2A/	2E 2AA\	24B/LL	.	8d\	-cha-	1ryy	.	.	1ryy	.	.	1ryy	.	.	1ryy	.	.
.	.	24e/	.	.	.	.	.	.	.	.	.	.	.	.	.	.	.
.	.	24g#/	.	.	.	.	.	.	.	.	.	.	.	.	.	.	.
!	!	!LO:TUP:a:problem:klamra łukowa	!	!	!	!	!	!	!	!	!	!	!	!	!	!	!
.	.	24a/	.	16c#\	-ją,	.	.	.	.	.	.	.	.	.	.	.	.
.	.	24e/	.	.	.	.	.	.	.	.	.	.	.	.	.	.	.
.	.	.	.	16r	.	.	.	.	.	.	.	.	.	.	.	.	.
.	.	24c#/JJ	.	.	.	.	.	.	.	.	.	.	.	.	.	.	.
!	!	!LO:TUP:a:problem:klamra łukowa	!	!	!	!	!	!	!	!	!	!	!	!	!	!	!
.	.	24c#/LL	.	4c#^\	to	.	.	.	.	.	.	.	.	.	.	.	.
.	.	24e/	.	.	.	.	.	.	.	.	.	.	.	.	.	.	.
.	.	24cc#/	.	.	.	.	.	.	.	.	.	.	.	.	.	.	.
!	!	!LO:TUP:a:problem:klamra łukowa	!	!	!	!	!	!	!	!	!	!	!	!	!	!	!
.	.	24cc#/	.	.	.	.	.	.	.	.	.	.	.	.	.	.	.
.	.	24e/	.	.	.	.	.	.	.	.	.	.	.	.	.	.	.
.	.	24c#/JJ	.	.	.	.	.	.	.	.	.	.	.	.	.	.	.
!	!	!LO:TUP:a:problem:klamra łukowa	!	!	!	!	!	!	!	!	!	!	!	!	!	!	!
4A 4F#\	2ryy	24c#/LL	.	4A/	jak	.	.	.	.	.	.	.	.	.	.	.	.
.	.	24e/	.	.	.	.	.	.	.	.	.	.	.	.	.	.	.
.	.	24a/	.	.	.	.	.	.	.	.	.	.	.	.	.	.	.
!	!	!LO:TUP:a:problem:klamra łukowa	!	!	!	!	!	!	!	!	!	!	!	!	!	!	!
.	.	24a/	.	.	.	.	.	.	.	.	.	.	.	.	.	.	.
.	.	24e/	.	.	.	.	.	.	.	.	.	.	.	.	.	.	.
.	.	24c#/JJ	.	.	.	.	.	.	.	.	.	.	.	.	.	.	.
!	!	!LO:TUP:a:problem:klamra łukowa	!	!	!	!	!	!	!	!	!	!	!	!	!	!	!
4F# 4E\	.	24c#/LL	.	8G#/	śre-	.	.	.	.	.	.	.	.	.	.	.	.
.	.	24f#/	.	.	.	.	.	.	.	.	.	.	.	.	.	.	.
.	.	24a/	.	.	.	.	.	.	.	.	.	.	.	.	.	.	.
!	!	!LO:TUP:a:problem:klamra łukowa	!	!	!	!	!	!	!	!	!	!	!	!	!	!	!
.	.	24a/	.	8F#/	-brne	.	.	.	.	.	.	.	.	.	.	.	.
.	.	24f#/	.	.	.	.	.	.	.	.	.	.	.	.	.	.	.
.	.	24c#/JJ	.	.	.	.	.	.	.	.	.	.	.	.	.	.	.
*v	*v	*	*	*	*	*	*	*	*	*	*	*	*	*	*	*	*
!!LO:LB:g=original
=8	=8	=8	=8	=8	=8	=8	=8	=8	=8	=8	=8	=8	=8	=8	=8	=8
!	!LO:TUP:a:problem:klamra łukowa	!	!	!	!	!	!	!	!	!	!	!	!	!	!	!
2F# 2D\	24B/LL	.	8c#\	śnie-	1ryy	.	.	1ryy	.	.	1ryy	.	.	1ryy	.	.
.	24f#/	.	.	.	.	.	.	.	.	.	.	.	.	.	.	.
.	24b/	.	.	.	.	.	.	.	.	.	.	.	.	.	.	.
!	!LO:TUP:a:problem:klamra łukowa	!	!	!	!	!	!	!	!	!	!	!	!	!	!	!
.	24b/	.	8B\	-gi	.	.	.	.	.	.	.	.	.	.	.	.
.	24f#/	.	.	.	.	.	.	.	.	.	.	.	.	.	.	.
.	24B/JJ	.	.	.	.	.	.	.	.	.	.	.	.	.	.	.
*	*rep	*	*	*	*	*	*	*	*	*	*	*	*	*	*	*
!	!LO:TUP:a:problem:klamra łukowa	!	!	!	!	!	!	!	!	!	!	!	!	!	!	!
.	24B/LL	.	8B\	w mi-	.	.	.	.	.	.	.	.	.	.	.	.
.	24f#/	.	.	.	.	.	.	.	.	.	.	.	.	.	.	.
.	24b/	.	.	.	.	.	.	.	.	.	.	.	.	.	.	.
!	!LO:TUP:a:problem:klamra łukowa	!	!	!	!	!	!	!	!	!	!	!	!	!	!	!
.	24b/	.	16c#\LL	-lio-	.	.	.	.	.	.	.	.	.	.	.	.
.	24f#/	.	.	.	.	.	.	.	.	.	.	.	.	.	.	.
.	.	.	16d\JJ	.	.	.	.	.	.	.	.	.	.	.	.	.
.	24B/JJ	.	.	.	.	.	.	.	.	.	.	.	.	.	.	.
*	*Xrep	*	*	*	*	*	*	*	*	*	*	*	*	*	*	*
!	!LO:TUP:a:problem:klamra łukowa	!	!	!	!	!	!	!	!	!	!	!	!	!	!	!
4A 4C#\	24e/LL	.	4.e\	-no-	.	.	.	.	.	.	.	.	.	.	.	.
.	24g#/	.	.	.	.	.	.	.	.	.	.	.	.	.	.	.
.	24a/	.	.	.	.	.	.	.	.	.	.	.	.	.	.	.
!	!LO:TUP:a:problem:klamra łukowa	!	!	!	!	!	!	!	!	!	!	!	!	!	!	!
.	24a/	.	.	.	.	.	.	.	.	.	.	.	.	.	.	.
.	24g#/	.	.	.	.	.	.	.	.	.	.	.	.	.	.	.
.	24e/JJ	.	.	.	.	.	.	.	.	.	.	.	.	.	.	.
!	!LO:TUP:a:problem:klamra łukowa	!	!	!	!	!	!	!	!	!	!	!	!	!	!	!
4c# 4A\	24gn/LL	.	.	.	.	.	.	.	.	.	.	.	.	.	.	.
.	24a/	.	.	.	.	.	.	.	.	.	.	.	.	.	.	.
.	24ee/	.	.	.	.	.	.	.	.	.	.	.	.	.	.	.
!	!LO:TUP:a:problem:klamra łukowa	!	!	!	!	!	!	!	!	!	!	!	!	!	!	!
.	24ee/	.	8A/	-wych	.	.	.	.	.	.	.	.	.	.	.	.
.	24a/	.	.	.	.	.	.	.	.	.	.	.	.	.	.	.
.	24g/JJ	.	.	.	.	.	.	.	.	.	.	.	.	.	.	.
=9	=9	=9	=9	=9	=9	=9	=9	=9	=9	=9	=9	=9	=9	=9	=9	=9
*^	*	*	*	*	*	*	*	*	*	*	*	*	*	*	*	*
!	!	!LO:TUP:a:problem:klamra łukowa	!	!	!	!	!	!	!	!	!	!	!	!	!	!	!
4d 4A/	2.D\	24f#/LL	.	4.f#\	tę-	1ryy	.	.	1ryy	.	.	1ryy	.	.	1ryy	.	.
.	.	24dd/	.	.	.	.	.	.	.	.	.	.	.	.	.	.	.
.	.	24ff#/	.	.	.	.	.	.	.	.	.	.	.	.	.	.	.
!	!	!LO:TUP:a:problem:klamra łukowa	!	!	!	!	!	!	!	!	!	!	!	!	!	!	!
.	.	24ff#/	.	.	.	.	.	.	.	.	.	.	.	.	.	.	.
.	.	24dd/	.	.	.	.	.	.	.	.	.	.	.	.	.	.	.
.	.	24f#/JJ	.	.	.	.	.	.	.	.	.	.	.	.	.	.	.
!	!	!LO:TUP:a:problem:klamra łukowa	!	!	!	!	!	!	!	!	!	!	!	!	!	!	!
4A#X/	.	24f#/LL	.	.	.	.	.	.	.	.	.	.	.	.	.	.	.
.	.	24cc#/	.	.	.	.	.	.	.	.	.	.	.	.	.	.	.
.	.	24ff#/	.	.	.	.	.	.	.	.	.	.	.	.	.	.	.
!	!	!LO:TUP:a:problem:klamra łukowa	!	!	!	!	!	!	!	!	!	!	!	!	!	!	!
.	.	24ff#/	.	16c#\	-czach	.	.	.	.	.	.	.	.	.	.	.	.
.	.	24cc#/	.	.	.	.	.	.	.	.	.	.	.	.	.	.	.
.	.	.	.	16c#\	ko-	.	.	.	.	.	.	.	.	.	.	.	.
.	.	24f#/JJ	.	.	.	.	.	.	.	.	.	.	.	.	.	.	.
!	!	!LO:TUP:a:problem:klamra łukowa	!	!	!	!	!	!	!	!	!	!	!	!	!	!	!
2B/	.	24f#/LL	.	4e\	-łu-	.	.	.	.	.	.	.	.	.	.	.	.
.	.	24b/	.	.	.	.	.	.	.	.	.	.	.	.	.	.	.
.	.	24ff#/	.	.	.	.	.	.	.	.	.	.	.	.	.	.	.
!	!	!LO:TUP:a:problem:klamra łukowa	!	!	!	!	!	!	!	!	!	!	!	!	!	!	!
.	.	24ff#/	.	.	.	.	.	.	.	.	.	.	.	.	.	.	.
.	.	24b/	.	.	.	.	.	.	.	.	.	.	.	.	.	.	.
.	.	24f#/JJ	.	.	.	.	.	.	.	.	.	.	.	.	.	.	.
!	!	!LO:TUP:a:problem:klamra łukowa	!	!	!	!	!	!	!	!	!	!	!	!	!	!	!
.	4F# 4BB\	24f#/LL	.	8d\	-ją	.	.	.	.	.	.	.	.	.	.	.	.
.	.	24b/	.	.	.	.	.	.	.	.	.	.	.	.	.	.	.
.	.	24dd/	.	.	.	.	.	.	.	.	.	.	.	.	.	.	.
!	!	!LO:TUP:a:problem:klamra łukowa	!	!	!	!	!	!	!	!	!	!	!	!	!	!	!
.	.	24d/	.	8B\	wspa-	.	.	.	.	.	.	.	.	.	.	.	.
.	.	24f#/	.	.	.	.	.	.	.	.	.	.	.	.	.	.	.
.	.	24b/JJ	.	.	.	.	.	.	.	.	.	.	.	.	.	.	.
*v	*v	*	*	*	*	*	*	*	*	*	*	*	*	*	*	*	*
=10	=10	=10	=10	=10	=10	=10	=10	=10	=10	=10	=10	=10	=10	=10	=10	=10
8E\L|	16cc#KL 16a 16c#/	.	4A/	-nia-	1ryy	.	.	1ryy	.	.	1ryy	.	.	1ryy	.	.
.	8cc# 8a 8c#/	.	.	.	.	.	.	.	.	.	.	.	.	.	.	.
8A\|	.	.	.	.	.	.	.	.	.	.	.	.	.	.	.	.
.	8cc# 8a 8c#/	.	.	.	.	.	.	.	.	.	.	.	.	.	.	.
8E\|	.	.	8E/	-le,	.	.	.	.	.	.	.	.	.	.	.	.
.	8cc# 8a 8c#/	.	.	.	.	.	.	.	.	.	.	.	.	.	.	.
8A\J|	.	.	8r	.	.	.	.	.	.	.	.	.	.	.	.	.
.	16cc#Jk 16a 16e/	.	.	.	.	.	.	.	.	.	.	.	.	.	.	.
8E\L|	16bKL 16e 16d/	.	8B\	tra-	.	.	.	.	.	.	.	.	.	.	.	.
.	8b 8e 8d/	.	.	.	.	.	.	.	.	.	.	.	.	.	.	.
8G#\|	.	.	16c#\	-cą	.	.	.	.	.	.	.	.	.	.	.	.
.	8b 8e 8d/	.	16d\	się	.	.	.	.	.	.	.	.	.	.	.	.
8E\|	.	.	8c#\	o	.	.	.	.	.	.	.	.	.	.	.	.
.	8b 8e 8d/	.	.	.	.	.	.	.	.	.	.	.	.	.	.	.
8G#\J|	.	.	8B\	mie-	.	.	.	.	.	.	.	.	.	.	.	.
.	16bJk 16e 16d/	.	.	.	.	.	.	.	.	.	.	.	.	.	.	.
!!LO:LB:g=original
=11	=11	=11	=11	=11	=11	=11	=11	=11	=11	=11	=11	=11	=11	=11	=11	=11
8E\L|	16bKL 16e 16c#/	.	4B\	-li-	1ryy	.	.	1ryy	.	.	1ryy	.	.	1ryy	.	.
.	8b 8e 8c#/	.	.	.	.	.	.	.	.	.	.	.	.	.	.	.
8A\|	.	.	.	.	.	.	.	.	.	.	.	.	.	.	.	.
.	8e 8c#/	.	.	.	.	.	.	.	.	.	.	.	.	.	.	.
8E\|	.	.	8A\	-znę	.	.	.	.	.	.	.	.	.	.	.	.
.	8a 8e 8c#/	.	.	.	.	.	.	.	.	.	.	.	.	.	.	.
8A\J|	.	.	8A\	i	.	.	.	.	.	.	.	.	.	.	.	.
.	16aJk 16e 16c#/	.	.	.	.	.	.	.	.	.	.	.	.	.	.	.
8E\L|	16eKL 16d 16B/	.	8G#/	roz-	.	.	.	.	.	.	.	.	.	.	.	.
.	8e 8d 8B/	.	.	.	.	.	.	.	.	.	.	.	.	.	.	.
8G#\|	.	.	8B\	-bi-	.	.	.	.	.	.	.	.	.	.	.	.
.	8b 8e 8d/	.	.	.	.	.	.	.	.	.	.	.	.	.	.	.
8E\|	.	.	8c#\	-ja-	.	.	.	.	.	.	.	.	.	.	.	.
.	8e 8d 8B/	.	.	.	.	.	.	.	.	.	.	.	.	.	.	.
8G#\J|	.	.	8d\	-ją	.	.	.	.	.	.	.	.	.	.	.	.
.	16bJk 16e 16d/	.	.	.	.	.	.	.	.	.	.	.	.	.	.	.
=12	=12	=12	=12	=12	=12	=12	=12	=12	=12	=12	=12	=12	=12	=12	=12	=12
8E\L|	16eKL 16c#/	.	4d\	fa-	1ryy	.	.	1ryy	.	.	1ryy	.	.	1ryy	.	.
.	8e 8c#/	.	.	.	.	.	.	.	.	.	.	.	.	.	.	.
8A\|	.	.	.	.	.	.	.	.	.	.	.	.	.	.	.	.
.	8cc# 8e 8c#/	.	.	.	.	.	.	.	.	.	.	.	.	.	.	.
8E\|	.	.	8c#\	-le	.	.	.	.	.	.	.	.	.	.	.	.
.	8e 8c#/	.	.	.	.	.	.	.	.	.	.	.	.	.	.	.
8A\J|	.	.	16r	.	.	.	.	.	.	.	.	.	.	.	.	.
.	16cc#Jk 16a 16c#/	.	16c#\	jak	.	.	.	.	.	.	.	.	.	.	.	.
8E\L|	16g#KL 16d/	.	8.e\	woj-	.	.	.	.	.	.	.	.	.	.	.	.
.	8g# 8d/	.	.	.	.	.	.	.	.	.	.	.	.	.	.	.
8B\|	.	.	.	.	.	.	.	.	.	.	.	.	.	.	.	.
.	8b 8g# 8d/	.	16d\	-sko	.	.	.	.	.	.	.	.	.	.	.	.
8E\|	.	.	8c#\	wie-	.	.	.	.	.	.	.	.	.	.	.	.
.	8cc# 8g# 8d/	.	.	.	.	.	.	.	.	.	.	.	.	.	.	.
8B\J|	.	.	8B\	-lo-	.	.	.	.	.	.	.	.	.	.	.	.
.	16ddJk [16g# 16d/	.	.	.	.	.	.	.	.	.	.	.	.	.	.	.
=13	=13	=13	=13	=13	=13	=13	=13	=13	=13	=13	=13	=13	=13	=13	=13	=13
8E\L|	16cc#KL 16g#] 16c#/	.	8c#\	-ry-	1ryy	.	.	1ryy	.	.	1ryy	.	.	1ryy	.	.
.	8cc# 8g#/	.	.	.	.	.	.	.	.	.	.	.	.	.	.	.
8c#\|	.	.	8G#/	-bów	.	.	.	.	.	.	.	.	.	.	.	.
.	8cc# 8g#/	.	.	.	.	.	.	.	.	.	.	.	.	.	.	.
8E\|	.	.	8.c#\	za-	.	.	.	.	.	.	.	.	.	.	.	.
.	8cc# 8b 8g#/	.	.	.	.	.	.	.	.	.	.	.	.	.	.	.
8G#\J|	.	.	.	.	.	.	.	.	.	.	.	.	.	.	.	.
.	16ddJk 16b 16g#/	.	16c#\	-le-	.	.	.	.	.	.	.	.	.	.	.	.
8E#X\L|	16cc#KL 16b 16g#/	.	8.c#\	-ga-	.	.	.	.	.	.	.	.	.	.	.	.
.	8cc# 8b 8g#/	.	.	.	.	.	.	.	.	.	.	.	.	.	.	.
8c#\|	.	.	.	.	.	.	.	.	.	.	.	.	.	.	.	.
.	8cc# 8b 8g#/	.	16B\	-jąc	.	.	.	.	.	.	.	.	.	.	.	.
8E#\|	.	.	8A/	mor-	.	.	.	.	.	.	.	.	.	.	.	.
.	8gg# 8cc# 8b/	.	.	.	.	.	.	.	.	.	.	.	.	.	.	.
8c#\J|	.	.	8G#/	-skie	.	.	.	.	.	.	.	.	.	.	.	.
.	16bbJk 16gg# 16cc#/	.	.	.	.	.	.	.	.	.	.	.	.	.	.	.
!!LO:PB:g=original
=14	=14	=14	=14	=14	=14	=14	=14	=14	=14	=14	=14	=14	=14	=14	=14	=14
8F#\L	8cc#\L	.	8B/	brze-	1ryy	.	.	1ryy	.	.	1ryy	.	.	1ryy	.	.
16r	16r	.	8A/	-gi	.	.	.	.	.	.	.	.	.	.	.	.
16f#Jk 16c#\	16aaJk 16ff# 16cc# 16a\	.	.	.	.	.	.	.	.	.	.	.	.	.	.	.
!	!	!	!LO:TX:a:i:t=Recit	!	!	!	!	!	!	!	!	!	!	!	!	!
4f# 4c#\	4aa 4ff# 4cc# 4a\	.	8r	.	.	.	.	.	.	.	.	.	.	.	.	.
.	.	.	8c#\	w try-	.	.	.	.	.	.	.	.	.	.	.	.
2r	2r	.	8.B/	-um-	.	.	.	.	.	.	.	.	.	.	.	.
.	.	.	16A/	-fie	.	.	.	.	.	.	.	.	.	.	.	.
.	.	.	8.G#/	ląd	.	.	.	.	.	.	.	.	.	.	.	.
.	.	.	16F#/	zdo-	.	.	.	.	.	.	.	.	.	.	.	.
=15	=15	=15	=15	=15	=15	=15	=15	=15	=15	=15	=15	=15	=15	=15	=15	=15
!LO:TX:t=P:problem:mixed beam	!	!	!	!	!	!	!	!	!	!	!	!	!	!	!	!
8AAL 8AAA/	8.r	.	4.f#\	-bę-	1ryy	.	.	1ryy	.	.	1ryy	.	.	1ryy	.	.
16r	.	.	.	.	.	.	.	.	.	.	.	.	.	.	.	.
16c#Jk 16A\	16ff# 16cc# 16f#\	.	.	.	.	.	.	.	.	.	.	.	.	.	.	.
4c# 4A\	4ff# 4cc# 4f#\	.	.	.	.	.	.	.	.	.	.	.	.	.	.	.
.	.	.	8c#\	-dą	.	.	.	.	.	.	.	.	.	.	.	.
2r	2r	.	8d\	i	.	.	.	.	.	.	.	.	.	.	.	.
.	.	.	8c#\	na	.	.	.	.	.	.	.	.	.	.	.	.
.	.	.	8B\	po-	.	.	.	.	.	.	.	.	.	.	.	.
.	.	.	8c#\	-wrót	.	.	.	.	.	.	.	.	.	.	.	.
=16	=16	=16	=16	=16	=16	=16	=16	=16	=16	=16	=16	=16	=16	=16	=16	=16
!LO:TX:t=P:problem:mixed beam	!	!	!	!	!	!	!	!	!	!	!	!	!	!	!	!
8BBL 8BBB/	8.r	.	4e\	zbie-	1ryy	.	.	1ryy	.	.	1ryy	.	.	1ryy	.	.
16r	.	.	.	.	.	.	.	.	.	.	.	.	.	.	.	.
16dJk 16B 16F#\	16ff# 16b 16f#\	.	.	.	.	.	.	.	.	.	.	.	.	.	.	.
8dL 8B 8F#\	8ff#L 8b 8f#\	.	8d\	-gi	.	.	.	.	.	.	.	.	.	.	.	.
16r	16r	.	8r	.	.	.	.	.	.	.	.	.	.	.	.	.
16f#Jk 16d 16B\	16dddJk 16ff# 16dd\	.	.	.	.	.	.	.	.	.	.	.	.	.	.	.
8f# 8d 8B\	8ddd 8ff# 8dd\	.	4d\	mie-	.	.	.	.	.	.	.	.	.	.	.	.
8r	8r	.	.	.	.	.	.	.	.	.	.	.	.	.	.	.
4r	4r	.	8.A/	-cą	.	.	.	.	.	.	.	.	.	.	.	.
.	.	.	16B/	za	.	.	.	.	.	.	.	.	.	.	.	.
!!LO:LB:g=original
=17	=17	=17	=17	=17	=17	=17	=17	=17	=17	=17	=17	=17	=17	=17	=17	=17
!	!LO:TX:a:i:t=Vivace	!	!LO:TX:a:i:t=a tempo vivace.	!	!	!	!	!	!	!	!	!	!	!	!	!
16C# 16CC#/	16r	ff	2.c#\	so-	1ryy	.	.	1ryy	.	.	1ryy	.	.	1ryy	.	.
*clefG2	*	*	*	*	*	*	*	*	*	*	*	*	*	*	*	*
16cc#/LL	16ccc#\LL	.	.	.	.	.	.	.	.	.	.	.	.	.	.	.
16b/	16bb\	.	.	.	.	.	.	.	.	.	.	.	.	.	.	.
16a/JJ	16aa\JJ	.	.	.	.	.	.	.	.	.	.	.	.	.	.	.
16g#/LL	16gg#\LL	.	.	.	.	.	.	.	.	.	.	.	.	.	.	.
16a/	16aa\	.	.	.	.	.	.	.	.	.	.	.	.	.	.	.
16g#/	16gg#\	.	.	.	.	.	.	.	.	.	.	.	.	.	.	.
16f#/JJ	16ff#\JJ	.	.	.	.	.	.	.	.	.	.	.	.	.	.	.
16e/LL	16ee\LL	.	.	.	.	.	.	.	.	.	.	.	.	.	.	.
16f#/	16ff#\	.	.	.	.	.	.	.	.	.	.	.	.	.	.	.
16e/	16ee\	.	.	.	.	.	.	.	.	.	.	.	.	.	.	.
16d/JJ	16dd\JJ	.	.	.	.	.	.	.	.	.	.	.	.	.	.	.
16c#/LL	16cc#\LL	.	4c#\	-bą	.	.	.	.	.	.	.	.	.	.	.	.
16B/	16b\	.	.	.	.	.	.	.	.	.	.	.	.	.	.	.
16A/	16a\	.	.	.	.	.	.	.	.	.	.	.	.	.	.	.
16d/JJ	16dd\JJ	.	.	.	.	.	.	.	.	.	.	.	.	.	.	.
=18	=18	=18	=18	=18	=18	=18	=18	=18	=18	=18	=18	=18	=18	=18	=18	=18
16c#/	16cc#\	.	2.f#^\	per-	1ryy	.	.	1ryy	.	.	1ryy	.	.	1ryy	.	.
*clefF4	*	*	*	*	*	*	*	*	*	*	*	*	*	*	*	*
16c#\LL	16cc#\LL	.	.	.	.	.	.	.	.	.	.	.	.	.	.	.
16B\	16b\	.	.	.	.	.	.	.	.	.	.	.	.	.	.	.
16A\JJ	16a\JJ	.	.	.	.	.	.	.	.	.	.	.	.	.	.	.
16G#\LL	16g#/LL	.	.	.	.	.	.	.	.	.	.	.	.	.	.	.
16A\	16a/	.	.	.	.	.	.	.	.	.	.	.	.	.	.	.
16G#\	16g#/	.	.	.	.	.	.	.	.	.	.	.	.	.	.	.
16F#\JJ	16f#/JJ	.	.	.	.	.	.	.	.	.	.	.	.	.	.	.
16E\LL	16e/LL	.	.	.	.	.	.	.	.	.	.	.	.	.	.	.
16F#\	16f#/	.	.	.	.	.	.	.	.	.	.	.	.	.	.	.
16E\	16e/	.	.	.	.	.	.	.	.	.	.	.	.	.	.	.
16D\JJ	16d/JJ	.	.	.	.	.	.	.	.	.	.	.	.	.	.	.
16C#/LL	16c#/LL	.	4c#\	-ły	.	.	.	.	.	.	.	.	.	.	.	.
16BB/	16B/	.	.	.	.	.	.	.	.	.	.	.	.	.	.	.
16AA/	16A/	.	.	.	.	.	.	.	.	.	.	.	.	.	.	.
16D/JJ	16d/JJ	.	.	.	.	.	.	.	.	.	.	.	.	.	.	.
=19	=19	=19	=19	=19	=19	=19	=19	=19	=19	=19	=19	=19	=19	=19	=19	=19
!	!	!LO:DY:b=2	!	!	!	!	!	!	!	!	!	!	!	!	!	!
1C#	4c#/	sf	4A^/	mu-	1ryy	.	.	1ryy	.	.	1ryy	.	.	1ryy	.	.
.	4r	.	4G#^/	-szle	.	.	.	.	.	.	.	.	.	.	.	.
!	!	!LO:DY:b=2	!	!	!	!	!	!	!	!	!	!	!	!	!	!
.	(2d [>2B< [>2G#< [>2F#</	sf	4F#^/	i	.	.	.	.	.	.	.	.	.	.	.	.
.	.	.	4d^\	ko-	.	.	.	.	.	.	.	.	.	.	.	.
=20	=20	=20	=20	=20	=20	=20	=20	=20	=20	=20	=20	=20	=20	=20	=20	=20
!	!	!LO:DY:b=2:rj	!	!	!	!	!	!	!	!	!	!	!	!	!	!
1CC#	4c#) 4B<] 4G#<] 4F#</]	sf	1c#^	-ra-	1ryy	.	.	1ryy	.	.	1ryy	.	.	1ryy	.	.
.	4r	.	.	.	.	.	.	.	.	.	.	.	.	.	.	.
!	!	!LO:DY:b=2	!	!	!	!	!	!	!	!	!	!	!	!	!	!
.	(>2c# 2B< 2G#< 2E#X</	sf	.	.	.	.	.	.	.	.	.	.	.	.	.	.
=21	=21	=21	=21	=21	=21	=21	=21	=21	=21	=21	=21	=21	=21	=21	=21	=21
*k[f#c#g#d#a#e#]	*k[f#c#g#d#]	*	*k[f#c#g#d#a#e#]	*	*k[f#c#g#d#a#e#]	*	*	*k[f#c#g#d#a#e#]	*	*	*k[f#c#g#d#a#e#]	*	*	*k[f#c#g#d#a#e#]	*	*
*^	*	*	*	*	*	*	*	*	*	*	*	*	*	*	*	*
!	!	!LO:TX:a:i:t=Adagio.	!	!LO:TX:a:i:t=Adagio.	!	!	!	!	!	!	!	!	!	!	!	!	!
!	!	!LO:TX:t=P:problem:znaki:f# cc# g# dd#	!	!LO:TX:t=P:problem:znaki:f# cc# g# dd# a# e#	!	!	!	!	!	!	!	!	!	!	!	!	!
!	!	!LO:SIC:v:n=2:s=4A#<	!	!	!	!	!	!	!	!	!	!	!	!	!	!	!
4ryy	1FF#	4c# 4A< 4F#</)	.	4F#/	-[le]	1ryy	.	.	1ryy	.	.	1ryy	.	.	1ryy	.	.
!	!	!	!LO:DY:t=ppp.	!	!	!	!	!	!	!	!	!	!	!	!	!	!
8r	.	8r	ppp	4r	.	.	.	.	.	.	.	.	.	.	.	.	.
!	!	!LO:SIC:v:n=2:s=4A#/	!	!	!	!	!	!	!	!	!	!	!	!	!	!	!
(8F# 8C#/	.	8c# 8A/	.	.	.	.	.	.	.	.	.	.	.	.	.	.	.
!	!	!LO:SIC:v:n=1:s=4a#	!	!	!	!	!	!	!	!	!	!	!	!	!	!	!
4.C# 4.FF#/)	.	4.a 4.f#/	.	2r	.	.	.	.	.	.	.	.	.	.	.	.	.
!	!	!LO:SIC:v:n=2:s=4A#/	!	!	!	!	!	!	!	!	!	!	!	!	!	!	!
(8F# 8C#/	.	(>8c# 8A/	.	.	.	.	.	.	.	.	.	.	.	.	.	.	.
!!LO:LB:g=original
=22	=22	=22	=22	=22	=22	=22	=22	=22	=22	=22	=22	=22	=22	=22	=22	=22	=22
!LO:TX:t=P:problem:brak zakończenia łuku (początek pięciolinii)	!	!LO:TX:t=P:problem:brak zakończenia łuku (początek pięciolinii)	!	!	!	!	!	!	!	!	!	!	!	!	!	!	!
!LO:TX:t=P:problem:znaki zapisane odnośnikiem	!	!LO:TX:t=P:problem:znaki zapisane odnośnikiem	!	!	!	!LO:TX:t=P:problem:znaki F# C# G# D# AA# E#	!	!	!LO:TX:t=P:problem:znaki zapisane odnośnikiem	!	!	!LO:TX:t=P:problem:znaki zapisane odnośnikiem	!	!	!LO:TX:t=P:problem:znaki:f# cc# g# dd# a# ee#	!	!
!	!	!LO:SIC:v:n=1:s=4.a#	!	!	!	!	!	!	!	!	!	!	!	!	!	!	!
4.C# 4.FF#/)	1FF#	4.a 4.f#/)	.	1ryy	.	1r	.	.	1r	.	.	1r	.	.	1r	.	.
!	!	!LO:SIC:v:n=2:s=8a#/	!	!	!	!	!	!	!	!	!	!	!	!	!	!	!
(<8F# 8C#/	.	(8c# 8A/	.	.	.	.	.	.	.	.	.	.	.	.	.	.	.
!	!	!LO:SIC:v:n=1:s=8a#L	!	!	!	!	!	!	!	!	!	!	!	!	!	!	!
8C#L 8FF#/)	.	8aL 8f#/)	.	.	.	.	.	.	.	.	.	.	.	.	.	.	.
16r	.	16r	.	.	.	.	.	.	.	.	.	.	.	.	.	.	.
!	!	!LO:SIC:v:n=2:s=16A#/	!	!	!	!	!	!	!	!	!	!	!	!	!	!	!
16F#K 16C#/	.	16c#K 16A/	.	.	.	.	.	.	.	.	.	.	.	.	.	.	.
!	!	!LO:SIC:v:n=1:s=8..a#	!	!	!	!	!	!	!	!	!	!	!	!	!	!	!
8..C# 8..FF#/	.	8..a 8..f#/	.	.	.	.	.	.	.	.	.	.	.	.	.	.	.
!	!	!LO:SIC:v:n=1:s=32a#Jkk	!	!	!	!	!	!	!	!	!	!	!	!	!LO:TX:a:i:t=molto dolce	!	!
!	!	!LO:SIC:v:n=2:s=32A#/	!	!	!	!	!	!	!	!	!	!	!	!	!	!	!
32F#Jkk 32C#/	.	32aJkk 32f# 32A/	.	.	.	.	.	.	.	.	.	.	.	.	.	.	.
*v	*v	*	*	*	*	*	*	*	*	*	*	*	*	*	*	*	*
=23	=23	=23	=23	=23	=23	=23	=23	=23	=23	=23	=23	=23	=23	=23	=23	=23
!	!LO:SIC:v:n=1:s=[1a#	!	!	!	!	!	!	!	!	!	!	!	!	!	!	!
!	!LO:SIC:v:n=3:s=[1A#	!	!	!	!	!	!	!	!	!	!	!	!	!	!	!
[1F# [>1C# [1FF#	[1a [>1f# [>1A	.	1ryy	.	1r	.	.	1r	.	.	1r	.	.	4r	.	.
.	.	.	.	.	.	.	.	.	.	.	.	.	.	8r	.	.
!	!	!	!	!	!	!	!	!	!	!	!	!	!	!	!	!LO:DY:rj
.	.	.	.	.	.	.	.	.	.	.	.	.	.	8cc#\	Po-	p
.	.	.	.	.	.	.	.	.	.	.	.	.	.	8.a#/	-dob-	.
.	.	.	.	.	.	.	.	.	.	.	.	.	.	16g#/	-nie	.
.	.	.	.	.	.	.	.	.	.	.	.	.	.	8f#/	na	.
.	.	.	.	.	.	.	.	.	.	.	.	.	.	8e#/	twe	.
=24	=24	=24	=24	=24	=24	=24	=24	=24	=24	=24	=24	=24	=24	=24	=24	=24
*rep	*rep	*	*	*	*	*	*	*	*	*	*	*	*	*	*	*
!	!LO:SIC:v:n=1:s=1a#_	!	!	!	!	!	!	!	!	!	!	!	!	!	!	!
!	!LO:SIC:v:n=3:s=1A#_	!	!	!	!	!	!	!	!	!	!	!	!	!	!	!
1F#_ 1C#] 1FF#_	1a_ 1f#_> 1A_>	.	1ryy	.	1r	.	.	1r	.	.	1r	.	.	4.d#/	ser-	.
.	.	.	.	.	.	.	.	.	.	.	.	.	.	8c#/	-ce	.
.	.	.	.	.	.	.	.	.	.	.	.	.	.	8f#/	o	.
.	.	.	.	.	.	.	.	.	.	.	.	.	.	8g#/	po-	.
.	.	.	.	.	.	.	.	.	.	.	.	.	.	8a#/	-e-	.
.	.	.	.	.	.	.	.	.	.	.	.	.	.	8dd#\	-to	.
*Xrep	*Xrep	*	*	*	*	*	*	*	*	*	*	*	*	*	*	*
!!LO:PB:g=original
=25	=25	=25	=25	=25	=25	=25	=25	=25	=25	=25	=25	=25	=25	=25	=25	=25
*rep	*rep	*	*	*	*	*	*	*	*	*	*	*	*	*	*	*
!	!LO:SIC:v:n=1:s=1a#]	!	!	!	!	!	!	!	!	!	!	!	!	!	!	!
!LO:TX:t=P:problem:koniec drugiej ligatury na górze	!LO:SIC:v:n=3:s=1A#]	!	!	!	!	!	!	!	!	!	!	!	!	!	!	!
1F#] 1C# 1FF#]	1a] 1f#] 1A]	.	1ryy	.	1r	.	.	1r	.	.	1r	.	.	4cc#\	mło-	.
.	.	.	.	.	.	.	.	.	.	.	.	.	.	8cc#\	-dy!	.
.	.	.	.	.	.	.	.	.	.	.	.	.	.	16r	.	.
.	.	.	.	.	.	.	.	.	.	.	.	.	.	16cc#\	na-	.
.	.	.	.	.	.	.	.	.	.	.	.	.	.	8.b#X\	-mię-	.
.	.	.	.	.	.	.	.	.	.	.	.	.	.	16cc#\	-tność	.
.	.	.	.	.	.	.	.	.	.	.	.	.	.	8.dd#\	czę-	.
.	.	.	.	.	.	.	.	.	.	.	.	.	.	16ee#\	-sto	.
*Xrep	*Xrep	*	*	*	*	*	*	*	*	*	*	*	*	*	*	*
=26	=26	=26	=26	=26	=26	=26	=26	=26	=26	=26	=26	=26	=26	=26	=26	=26
!	!	!LO:DY:rj	!	!	!	!	!	!	!	!	!	!	!	!	!	!
(1AA#	(>1cc# 1f# 1c#	fp	1ryy	.	1r	.	.	1r	.	.	1r	.	.	4.ff#\	gro-	.
.	.	.	.	.	.	.	.	.	.	.	.	.	.	8f#/	-źne	.
.	.	.	.	.	.	.	.	.	.	.	.	.	.	8.g#/	wzbu-	.
.	.	.	.	.	.	.	.	.	.	.	.	.	.	16a#/	-rza	.
.	.	.	.	.	.	.	.	.	.	.	.	.	.	8.b\	nie-	.
.	.	.	.	.	.	.	.	.	.	.	.	.	.	16cc#\	-po-	.
=27	=27	=27	=27	=27	=27	=27	=27	=27	=27	=27	=27	=27	=27	=27	=27	=27
4GG#/)	4b 4g# 4f# 4d#/)	.	1ryy	.	4r	.	.	4r	.	.	4r	.	.	4..dd#\	-go-	.
!	!	!LO:DY:rj	!	!	!	!	!LO:DY:rj	!	!	!LO:DY:rj	!	!	!LO:DY:rj	!	!	!
8.BL 8.G#\	8.dd#L 8.b 8.g# 8.f#/	f	.	.	8.B\	.	f	8.d#\	.	f	8.f#/	Lecz	f	.	.	.
!	!	!	!	!	!	!	!	!	!	!	!	!	!	!	!	!LO:DY:a
16BJk 16G#\	16dd#Jk 16b 16g# 16f#/	.	.	.	16B\	.	.	16d#\	.	.	16f#/	gdy	.	16dd#\	-dy.	f
!	!LO:SIC:v:n=1:s=4ee#	!	!	!	!	!	!	!	!	!	!LO:N:vis=4.	!	!	!LO:N:vis=4.	!	!
!	!LO:SIC:v:n=3:s=4e#^/	!	!	!	!	!	!	!	!	!	!	!	!	!	!	!
4c# 4B\	4ee 4g# 4e^/	.	.	.	4B^\	.	.	4c#^\	.	.	4g#^/	bar-	.	4ee#^\	Bar-	.
8.d#L 8.B\	8.dd#L 8.g#/	.	.	.	8.B\	.	.	8.d#\	.	.	8.g#/	-don	.	8.dd#\	-don	.
16e#Jk 16B\	16cc#Jk 16g#/	.	.	.	16B\	.	.	16e#\	.	.	16g#/	po	.	16cc#\	pod-	.
!!LO:LB:g=original
=28	=28	=28	=28	=28	=28	=28	=28	=28	=28	=28	=28	=28	=28	=28	=28	=28
2f# 2A#\	(>4.cc#^/	.	1ryy	.	4.A#\	.	.	4.f#\	.	.	4.f#/	.	.	4.cc#\	-nie-	.
.	8ff#/	.	.	.	8A#\	.	.	8c#\	.	.	8c#/	.	.	8ff#\	-siesz	.
!	!LO:SIC:v:s=8ee#/L	!	!	!	!	!	!	!	!	!	!	!	!	!	!	!
2e#> 2c# 2B 2G#\	8ee/L	.	.	.	8G#\	.	.	8B\	.	.	8e#/	.	.	8ee#\	o-	.
.	8dd#/	.	.	.	8G#\	.	.	8B\	.	.	8e#/	.	.	8dd#\	-na	.
.	8cc#/	.	.	.	8G#\	.	.	8B\	.	.	8e#/	.	.	8cc#\	bez	.
.	8b/J)	.	.	.	8G#\	.	.	8c#\	.	.	8e#/	.	.	8b\	twej	.
=29	=29	=29	=29	=29	=29	=29	=29	=29	=29	=29	=29	=29	=29	=29	=29	=29
*^	*	*	*	*	*	*	*	*	*	*	*	*	*	*	*	*
!	!	!LO:SIC:v:s=4.a#/	!	!	!	!	!	!	!	!	!	!	!	!	!	!	!
(4c#/	2F#\	4.a/	.	1ryy	.	4F#\	.	.	4c#\	.	.	4f#/	.	.	4a#/	szko-	.
8A#/L)	.	.	.	.	.	8F#\	.	>	8A#/	.	>	8f#/	.	.	8a#/	-dy	.
!	!	!LO:SIC:v:n=1:s=(8#	!	!	!	!	!	!	!	!	!	!	!	!	!	!	!
!	!	!LO:SIC:v:n=3:s=8A#/	!	!	!	!	!	!	!	!	!	!	!	!	!	!	!
8F#/J	.	(>8a 8c# 8A/|>	.	.	.	8A#\	.	.	8A#/	.	.	8a#/	.	>	8a#/	u-	>
8F#/L	2BB\	8g#L 8d# 8B/|>	.	.	.	8G#\	.	.	8G#/	.	.	8g#/	.	.	8g#/	-cie-	.
8F#'</	.	8f# 8d#/|>	.	.	.	8F#\	.	.	8F#/	.	.	8f#/	.	.	8f#/	-ka	.
!	!	!LO:SIC:v:n=1:s=8e#	!	!	!	!	!	!	!	!	!	!	!	!	!	!	!
8F#'</	.	8e 8c#/|>	.	.	.	8E#\	.	]	8E#/	.	]	8e#/	.	]	8e#/	w za-	.
8F#'</J	.	8d#J 8B/|>	.	.	.	8D#\	.	.	8D#/	.	.	8d#/	.	.	8d#/	-po-	]
*v	*v	*	*	*	*	*	*	*	*	*	*	*	*	*	*	*	*
=30	=30	=30	=30	=30	=30	=30	=30	=30	=30	=30	=30	=30	=30	=30	=30	=30
!	!	!	!	!	!	!	!LO:DY:rj	!	!	!LO:DY:rj	!	!	!LO:DY:rj	!	!	!LO:DY:rj
(4F# 4AA#/	4f# 4c#/)	.	1ryy	.	4C#/	.	p	4F#/	.	p	4c#/	.	p	4f#/	-mnie-	p
!LO:ACC:color=blue:problem:tylko górny kasownik	!	!	!	!	!	!	!	!	!	!	!	!	!	!LO:TX:a:i:t=ralentando.	!	!
4En 4AAn/	(>4c#/	.	.	.	8AAn/	.	.	8En/	.	.	8c#/	.	.	8c#/	-nia	.
.	.	.	.	.	8AA/	.	.	8E/	.	.	8c#/	.	.	8c#/	po-	.
4DDn/	4cn 4F#</	.	.	.	4Dn/	.	.	4F#/	.	.	4cn/	.	.	4cn/	-grą-	.
4GGn/)	4Bn 4E#X<@/)	.	.	.	8GGn/	.	.	8E#X/@	.	.	8B/	.	.	8B/	-żyć	.
.	.	.	.	.	8GG/	.	.	8E#/@	.	.	8B/	.	.	8B/	się	.
!!LO:PB:g=original
=31	=31	=31	=31	=31	=31	=31	=31	=31	=31	=31	=31	=31	=31	=31	=31	=31
!	!LO:SIC:v:n=1:s=16A#<LL	!	!	!	!	!	!	!	!	!	!	!	!	!	!	!
2FF#\	16A<LL 16F#</	.	1ryy	.	4FF#/	to-	.	4F#/	.	.	4A#/	.	.	4A#/	to-	.
.	16C#</	.	.	.	.	.	.	.	.	.	.	.	.	.	.	.
.	16F#</	.	.	.	.	.	.	.	.	.	.	.	.	.	.	.
!	!LO:SIC:v:s=16A#</JJ	!	!	!	!	!	!	!	!	!	!	!	!	!	!	!
.	16A</JJ	.	.	.	.	.	.	.	.	.	.	.	.	.	.	.
.	16c#</LL	.	.	.	8C#/	-ni	.	8C#/	.	.	8c#/	.	.	8c#/	-ni	.
!	!LO:SIC:v:s=16A#</	!	!	!	!	!	!	!	!	!	!	!	!	!	!	!
.	16A</	.	.	.	.	.	.	.	.	.	.	.	.	.	.	.
.	16F#</	.	.	.	8C#/	i	.	8r	.	.	8r	.	.	8r	.	.
.	16C#</JJ	.	.	.	.	.	.	.	.	.	.	.	.	.	.	.
2AA#\	16r<	.	.	.	8C#/	pie-	.	2ryy	.	.	2r	.	.	2r	.	.
.	16C#</LL	.	.	.	.	.	.	.	.	.	.	.	.	.	.	.
.	16F#</	.	.	.	8D#/	-śni	.	.	.	.	.	.	.	.	.	.
!	!LO:SIC:v:s=16A#</JJ	!	!	!	!	!	!	!	!	!	!	!	!	!	!	!
.	16A</JJ	.	.	.	.	.	.	.	.	.	.	.	.	.	.	.
.	16c#</LL	.	.	.	8F#\	nie-	.	.	.	.	.	.	.	.	.	.
!	!LO:SIC:v:s=16A#</	!	!	!	!	!	!	!	!	!	!	!	!	!	!	!
.	16A</	.	.	.	.	.	.	.	.	.	.	.	.	.	.	.
.	16F#</	.	.	.	8A#\	-śmie-	.	.	.	.	.	.	.	.	.	.
.	16C#</JJ	.	.	.	.	.	.	.	.	.	.	.	.	.	.	.
=32	=32	=32	=32	=32	=32	=32	=32	=32	=32	=32	=32	=32	=32	=32	=32	=32
!	!LO:TX:b:t=vi:color=blue	!	!	!	!	!	!	!	!	!	!	!	!	!LO:TX:a:t=A=:color=red	!	!
2DD#\@	16r	.	1ryy	.	4.c#\	-rtel-	.	1ryy	.	.	1ryy	.	.	1ryy	.	.
.	16F#</LL	.	.	.	.	.	.	.	.	.	.	.	.	.	.	.
!	!LO:SIC:v:s=16A#</	!	!	!	!	!	!	!	!	!	!	!	!	!	!	!
.	16A</	.	.	.	.	.	.	.	.	.	.	.	.	.	.	.
.	16c#</JJ	.	.	.	.	.	.	.	.	.	.	.	.	.	.	.
!	!LO:TX:t=P:problem:mixed beam	!	!	!	!	!	!	!	!	!	!	!	!	!	!	!
.	16f#\LL	.	.	.	.	.	.	.	.	.	.	.	.	.	.	.
.	16c#</	.	.	.	.	.	.	.	.	.	.	.	.	.	.	.
!	!LO:SIC:v:s=16A#</	!	!	!	!	!	!	!	!	!	!	!	!	!	!	!
.	16A</	.	.	.	8B#X\	-ne	.	.	.	.	.	.	.	.	.	.
.	16F#</JJ	.	.	.	.	.	.	.	.	.	.	.	.	.	.	.
2GG#\@	16r	.	.	.	8G#\	za	.	.	.	.	.	.	.	.	.	.
.	16F#</LL	.	.	.	.	.	.	.	.	.	.	.	.	.	.	.
.	16G#</	.	.	.	8F#\	so-	.	.	.	.	.	.	.	.	.	.
.	16B#X</JJ	.	.	.	.	.	.	.	.	.	.	.	.	.	.	.
.	16d#</LL	.	.	.	8D#\	-bą	.	.	.	.	.	.	.	.	.	.
.	16B#</	.	.	.	.	.	.	.	.	.	.	.	.	.	.	.
.	16G#</	.	.	.	16E#\LL	u-	.	.	.	.	.	.	.	.	.	.
.	16F#</JJ	.	.	.	16D#\JJ	.	.	.	.	.	.	.	.	.	.	.
=33	=33	=33	=33	=33	=33	=33	=33	=33	=33	=33	=33	=33	=33	=33	=33	=33
2CC#\	16r	.	1ryy	.	2.C#/	-ro-	.	2r	.	.	1r	.	.	4r	.	.
!	!LO:SIC:v:s=16E#</LL	!	!	!	!	!	!	!	!	!	!	!	!	!	!	!
.	16E</LL	.	.	.	.	.	.	.	.	.	.	.	.	.	.	.
.	16G#</	.	.	.	.	.	.	.	.	.	.	.	.	.	.	.
.	16c#</JJ	.	.	.	.	.	.	.	.	.	.	.	.	.	.	.
.	16B</LL	.	.	.	.	.	.	.	.	.	.	.	.	8r	.	.
.	16G#</	.	.	.	.	.	.	.	.	.	.	.	.	.	.	.
!	!LO:SIC:v:s=16E#</	!	!	!	!	!	!	!	!	!	!	!	!	!	!	!
.	16E</	.	.	.	.	.	.	.	.	.	.	.	.	8c#/	i	.
.	16C#</JJ	.	.	.	.	.	.	.	.	.	.	.	.	.	.	.
!	!LO:TX:t=P:problem:brak 16r	!	!	!	!	!	!	!	!	!	!	!	!	!	!	!
2FF#\	16ryy	.	.	.	.	.	.	4r	.	.	.	.	.	8f#/	pie-	.
!	!LO:TX:t=P:problem:mixed beam	!	!	!	!	!	!	!	!	!	!	!	!	!	!	!
!	!LO:SIC:v:s=16A#</LL	!	!	!	!	!	!	!	!	!	!	!	!	!	!	!
.	16A</LL	.	.	.	.	.	.	.	.	.	.	.	.	.	.	.
.	16c#\	.	.	.	.	.	.	.	.	.	.	.	.	8g#/	-śni	.
.	16f#\JJ	.	.	.	.	.	.	.	.	.	.	.	.	.	.	.
.	16d#</LL	.	.	.	8C#/	-ni	.	8r	.	.	.	.	.	8a#/	nie-	.
.	16c#</	.	.	.	.	.	.	.	.	.	.	.	.	.	.	.
!	!LO:SIC:v:s=16A#</	!	!	!	!	!	!	!	!	!	!	!	!	!	!	!
.	16A</	.	.	.	8r	.	.	8C#/	i	.	.	.	.	8cc#\	-śmier-	.
.	16F#</JJ	.	.	.	.	.	.	.	.	.	.	.	.	.	.	.
!!LO:LB:g=original
=34	=34	=34	=34	=34	=34	=34	=34	=34	=34	=34	=34	=34	=34	=34	=34	=34
*	*^	*	*	*	*	*	*	*	*	*	*	*	*	*	*	*
2FF#/	16r	2ryy	.	1ryy	.	1r	.	.	8F#/	pie-	.	1r	.	.	4.ff#\	-tel-	.
!	!LO:SIC:v:s=16A#/LL	!	!	!	!	!	!	!	!	!	!	!	!	!	!	!	!
.	16A/LL	.	.	.	.	.	.	.	.	.	.	.	.	.	.	.	.
.	16c#/	.	.	.	.	.	.	.	8G#/	-śni	.	.	.	.	.	.	.
!	!LO:SIC:v:s=16a#/JJ	!	!	!	!	!	!	!	!	!	!	!	!	!	!	!	!
.	16a/JJ	.	.	.	.	.	.	.	.	.	.	.	.	.	.	.	.
.	16f#/LL	.	.	.	.	.	.	.	8A#/	nie-	.	.	.	.	.	.	.
.	16d#/	.	.	.	.	.	.	.	.	.	.	.	.	.	.	.	.
.	16c#/	.	.	.	.	.	.	.	8c#\	-śmier-	.	.	.	.	8ee#\	-ne	.
!	!LO:SIC:v:s=16A#/JJ	!	!	!	!	!	!	!	!	!	!	!	!	!	!	!	!
.	16A/JJ	.	.	.	.	.	.	.	.	.	.	.	.	.	.	.	.
2C# 2FF#/	16r	4ryy	.	.	.	.	.	.	4.f#\	-tel-	.	.	.	.	8cc#\	za	.
!	!LO:SIC:v:s=16A#/LL	!	!	!	!	!	!	!	!	!	!	!	!	!	!	!	!
.	16A/LL	.	.	.	.	.	.	.	.	.	.	.	.	.	.	.	.
.	16c#/	.	.	.	.	.	.	.	.	.	.	.	.	.	8a#/	so-	.
.	16f#/JJ	.	.	.	.	.	.	.	.	.	.	.	.	.	.	.	.
!	!	!LO:TX:t=P:problem:mixed beam	!	!	!	!	!	!	!	!	!	!	!	!	!	!	!
.	8d#/L	16d#\LL	.	.	.	.	.	.	.	.	.	.	.	.	8f#/	-bą	.
.	.	16c#\	.	.	.	.	.	.	.	.	.	.	.	.	.	.	.
!	!LO:SIC:v:s=8e#/J	!	!	!	!	!	!	!	!	!	!	!	!	!	!	!	!
.	8e/J	16B\	.	.	.	.	.	.	16e#/	-ne	.	.	.	.	8g#/	u-	.
.	.	16G#</JJ	.	.	.	.	.	.	16d#/	u-	.	.	.	.	.	.	.
=35	=35	=35	=35	=35	=35	=35	=35	=35	=35	=35	=35	=35	=35	=35	=35	=35	=35
8FF#/	16r	4ryy	.	1ryy	.	4r	.	.	8c#/	-ro-	.	4r	.	.	8a#/	-ro-	.
!	!LO:SIC:v:s=16A#/LL	!	!	!	!	!	!	!	!	!	!	!	!	!	!	!	!
.	16A/LL	.	.	.	.	.	.	.	.	.	.	.	.	.	.	.	.
8r	16c#/	.	.	.	.	.	.	.	8c#\	-ni,	.	.	.	.	8f#/	-ni	.
.	16f#/JJ	.	.	.	.	.	.	.	.	.	.	.	.	.	.	.	.
!	!LO:SIC:v:s=16a#/LL	!LO:SIC:v:s=8a#\L	!	!	!	!	!	!	!	!	!	!	!	!	!	!	!
(4F#\	16a/LL	8a\L	.	.	.	8F#\	.	.	8c#\	nie-	.	8f#/	.	.	8a#/	nie-	.
.	16c#/	.	.	.	.	.	.	.	.	.	.	.	.	.	.	.	.
.	16f#/	8f#\J	.	.	.	8F#\	.	.	8c#\	-śmier-	.	8f#/	.	.	8a#/	-śmier-	.
!	!LO:SIC:v:s=16a#/JJ	!	!	!	!	!	!	!	!	!	!	!	!	!	!	!	!
.	16a/JJ	.	.	.	.	.	.	.	.	.	.	.	.	.	.	.	.
*	*	*	*	*	*	*	*	*	*2\right	*	*	*	*	*	*	*	*
4E#X\	16b/LL	8b\L	.	.	.	(4E#X\	.	.	2dn\	-tel-	.	4gn/	.	.	(4b\	-tel-	.
.	16dn/	.	.	.	.	.	.	.	.	.	.	.	.	.	.	.	.
.	16gn/	8gn\J	.	.	.	.	.	.	.	.	.	.	.	.	.	.	.
.	16b/JJ	.	.	.	.	.	.	.	.	.	.	.	.	.	.	.	.
4En\	16b#X/LL	8b#\L	.	.	.	4En\	.	.	.	.	.	4g#X/	.	.	4b#X\	.	.
.	16d/	.	.	.	.	.	.	.	.	.	.	.	.	.	.	.	.
.	16g#X/	8g#\J	.	.	.	.	.	.	.	.	.	.	.	.	.	.	.
.	16b#/JJ	.	.	.	.	.	.	.	.	.	.	.	.	.	.	.	.
=36	=36	=36	=36	=36	=36	=36	=36	=36	=36	=36	=36	=36	=36	=36	=36	=36	=36
!LO:TX:b:t==tro.:note=podkreślone na czerwono	!	!	!	!	!	!	!	!	!	!	!	!	!	!	!	!	!
8AAn/)	16cc#/LL	8cc#\L	.	1ryy	.	8AAn/)	.	.	8c#\	-[ne]	.	8an/	.	.	8cc#\)	-ne,	.
.	16c#/	.	.	.	.	.	.	.	.	.	.	.	.	.	.	.	.
8r	16e/	8e\J	.	.	.	8r	.	.	8r	.	.	8r	.	.	8r	.	.
.	16an/JJ	.	.	.	.	.	.	.	.	.	.	.	.	.	.	.	.
!	!	!	!	!	!	!	!	!	!LO:SIC:v:s=8een	!	!	!	!	!	!	!	!
(4An\	16cc#/LL	8cc#\L	.	.	.	8An\	.	.	8e#\	.	.	8a/	.	.	8cc#\	nie-	.
.	16e/	.	.	.	.	.	.	.	.	.	.	.	.	.	.	.	.
!	!	!	!	!	!	!	!	!	!LO:SIC:v:s=8een	!	!	!	!	!	!	!	!
.	16a/	8a\J	.	.	.	8A\	.	.	8e#\	.	.	8a/	.	.	8cc#\	-śmier-	.
.	16cc#/JJ	.	.	.	.	.	.	.	.	.	.	.	.	.	.	.	.
!	!	!	!	!	!	!	!	!	!	!	!	!	!	!	!LO:ACC:color=blue	!	!
4G#\	16ddn/LL	8ddn\L	.	.	.	(4G#\	.	.	(2fn\	.	.	(4b-X/	.	.	(4ddn\	-tel-	.
.	16fn/	.	.	.	.	.	.	.	.	.	.	.	.	.	.	.	.
.	16b-X/	8b-\J	.	.	.	.	.	.	.	.	.	.	.	.	.	.	.
.	16dd/JJ	.	.	.	.	.	.	.	.	.	.	.	.	.	.	.	.
4Gn\	16dd#X/LL	8dd#\L	.	.	.	4Gn\	.	.	.	.	.	4bn/	.	.	4dd#X\	.	.
!	!LO:TX:t=P:problem:cauda nie w tą stronę	!	!	!	!	!	!	!	!	!	!	!	!	!	!	!	!
.	16f\	.	.	.	.	.	.	.	.	.	.	.	.	.	.	.	.
.	16bn/	8bn\J	.	.	.	.	.	.	.	.	.	.	.	.	.	.	.
.	16dd#/JJ	.	.	.	.	.	.	.	.	.	.	.	.	.	.	.	.
!!LO:PB:g=original
=37	=37	=37	=37	=37	=37	=37	=37	=37	=37	=37	=37	=37	=37	=37	=37	=37	=37
!	!	!	!	!	!	!	!	!	!LO:SIC:v:s=8een\)	!	!	!	!	!	!LO:SIC:v:s=8een\)	!	!
!LO:TX:t=P:problem:brak zakończenia łuku (początek pięciolinii)	!	!	!	!	!	!LO:TX:t=P:problem:brak zakończenia łuku (początek pięciolinii)	!	!	!LO:TX:t=P:problem:brak zakończenia łuku (początek pięciolinii)	!	!	!LO:TX:t=P:problem:brak zakończenia łuku (początek pięciolinii)	!	!	!LO:TX:t=P:problem:brak zakończenia łuku (początek pięciolinii)	!	!
8Cn/)	16ee/LL	8ee\L	.	1ryy	.	8Cn/)	.	.	8e#\)	.	.	8ccn\)	.	.	8ee#\)	-[ne]	.
.	16e/	.	.	.	.	.	.	.	.	.	.	.	.	.	.	.	.
8r	16gn/	8gn\J	.	.	.	8r	.	.	8r	.	.	8r	.	.	8r	.	.
.	16ccn/JJ	.	.	.	.	.	.	.	.	.	.	.	.	.	.	.	.
!	!	!	!	!	!	!	!	!	!LO:SIC:v:s=8een\	!	!	!	!	!	!LO:SIC:v:s=8een\	!	!
4cn\	16ee/LL	4ee\	.	.	.	8cn\	.	<	8e#\	.	<	8gn/	.	.	8ee#\	pie-	<
.	16g/	.	.	.	.	.	.	.	.	.	.	.	.	<	.	.	.
!	!	!	!	!	!	!	!	!	!LO:SIC:v:s=8een\	!	!	!	!	!	!LO:SIC:v:s=8een\	!	!
.	16cc/	.	.	.	.	8c\	.	.	8e#\	.	.	8g/	.	.	8ee#\	-śni	.
.	16ee/JJ	.	.	.	.	.	.	.	.	.	.	.	.	.	.	.	.
!	!	!	!	!	!	!	!	!	!	!	!	!	!	!	!LO:SIC:v:s=4een\	!	!
4B\	16ee/LL	4ee\	.	.	.	4B^\	.	.	4dn\	.	.	4g#X/	.	.	4ee#\	nie-	.
.	16g#X/	.	.	.	.	.	.	.	.	.	.	.	.	.	.	.	.
.	16ddn/	.	.	.	.	.	.	.	.	.	.	.	.	.	.	.	.
.	16ee/JJ	.	.	.	.	.	.	.	.	.	.	.	.	.	.	.	.
4B-X\	16ee#/LL	4ee#\	.	.	.	4B-X^\	.	[	4d\	.	.	4g#/	.	.	4ee#X\	-śmier-	[
.	16g#/	.	.	.	.	.	.	.	.	.	[	.	.	[	.	.	.
.	16dd/	.	.	.	.	.	.	.	.	.	.	.	.	.	.	.	.
!	!	!	!	!	!	!	!	!LO:DY:b	!	!	!	!	!	!	!	!	!
.	16ee#/JJ	.	.	.	.	.	.	f	.	.	f	.	.	f	.	.	f
=38	=38	=38	=38	=38	=38	=38	=38	=38	=38	=38	=38	=38	=38	=38	=38	=38	=38
*^	*	*	*	*	*	*	*	*	*	*	*	*	*	*	*	*	*
!	!	!	!	!	!	!	!	!	!LO:DY:a	!	!	!	!	!	!	!	!	!
2An/	2Dn 2AAn\	4ff#/	16ddn\LL	.	1ryy	.	4.An\	.	f	4.dn\	.	.	4.an/	.	.	(4ff#\	-tel-	.
.	.	.	16f#\	.	.	.	.	.	.	.	.	.	.	.	.	.	.	.
!	!	!	!LO:SIC:v:s=16a#\	!	!	!	!	!	!	!	!	!	!	!	!	!	!	!
.	.	.	16a\	.	.	.	.	.	.	.	.	.	.	.	.	.	.	.
.	.	.	16ff#\JJ	.	.	.	.	.	.	.	.	.	.	.	.	.	.	.
.	.	16ee/LL	8ee\L	.	.	.	.	.	.	.	.	.	.	.	.	8een\)	.	.
!	!	!LO:SIC:v:s=16a#/	!	!	!	!	!	!	!	!	!	!	!	!	!	!	!	!
.	.	16a/	.	.	.	.	.	.	.	.	.	.	.	.	.	.	.	.
.	.	16dd/	8dd\J	.	.	.	8AAn/	.	.	8An/	.	.	8f#/	.	.	8ddn\	-ne	.
.	.	16f#/JJ	.	.	.	.	.	.	.	.	.	.	.	.	.	.	.	.
!	!	!	!	!	!	!	!	!	!LO:HP:color=blue	!	!	!LO:HP:color=blue	!	!	!LO:DY:a	!	!	!LO:DY:a
4A/	4A\	16cc#/LL	4ryy	.	.	.	4A\	.	>	(4c#\	.	>	4.f#/	.	>	(4cc#\	z kto-	>
.	.	16c#/	.	.	.	.	.	.	.	.	.	.	.	.	.	.	.	.
.	.	16f#/	.	.	.	.	.	.	.	.	.	.	.	.	.	.	.	.
.	.	16cc#/JJ	.	.	.	.	.	.	.	.	.	.	.	.	.	.	.	.
4G#\	4ryy	16b#X/LL	8b#\L	.	.	.	4G#X\	.	]]	8B#X\)	.	.	.	.	.	8b#X\)	.	.
.	.	16f#/	.	.	.	.	.	.	.	.	.	.	.	.	.	.	.	.
.	.	16bn/	8bn\J	.	.	.	.	.	.	8Bn\	.	]]	8e#X/	.	]]	8bn\	-rych	]]
.	.	16e#X/JJ	.	.	.	.	.	.	.	.	.	.	.	.	.	.	.	.
*v	*v	*	*	*	*	*	*	*	*	*	*	*	*	*	*	*	*	*
=39	=39	=39	=39	=39	=39	=39	=39	=39	=39	=39	=39	=39	=39	=39	=39	=39	=39
*	*	*	*	*	*	*2\right	*	*	*	*	*	*	*	*	*	*	*
!	!	!	!	!	!	!	!	!LO:HP:b:color=blue	!	!	!LO:HP:b:color=blue	!	!	!	!	!	!
!	!LO:SIC:v:n=1:s=16a#LL	!	!	!	!	!	!	!LO:DY:rj:color=blue	!	!	!LO:DY:rj	!	!	!LO:DY:rj	!	!	!LO:DY:rj
2F#\	16aLL 16f#/	4ryy	.	1ryy	.	2F#\	.	p <	(>4.A#X/	.	p <	2.f#/	.	p <	(4.a#X/	wie-	p <
.	16c#/	.	.	.	.	.	.	.	.	.	.	.	.	.	.	.	.
.	16f#/	.	.	.	.	.	.	.	.	.	.	.	.	.	.	.	.
!	!LO:SIC:v:s=16a#/JJ	!	!LO:HP:b=2	!	!	!	!	!	!	!	!	!	!	!	!	!	!
.	16a/JJ	.	<	.	.	.	.	.	.	.	.	.	.	.	.	.	.
!	!LO:SIC:v:s=8a#/L	!LO:SIC:v:s=16a#\LL	!	!	!	!	!	!	!	!	!	!	!	!	!	!	!
.	8a/L	16a\LL	.	.	.	.	.	.	.	.	.	.	.	.	.	.	.
.	.	16c#\	.	.	.	.	.	.	.	.	.	.	.	.	.	.	.
.	8b/J	16b\	.	.	.	.	.	.	8B/	.	.	.	.	.	8b/	.	.
.	.	16f#\JJ	.	.	.	.	.	.	.	.	.	.	.	.	.	.	.
4A# 4F#\	8b#X/L	16b#\LL	.	.	.	4F#\	.	.	8B#X/L	.	.	.	.	.	8b#X\L	.	.
.	.	16c#\	.	.	.	.	.	.	.	.	.	.	.	.	.	.	.
.	8cc#/	16f#\	.	.	.	.	.	[	8c#/J)	.	.	.	.	.	8cc#\J)	.	.
.	.	16g#\JJ	.	.	.	.	.	.	.	.	.	.	.	.	.	.	.
!	!LO:SIC:v:s=8ee#/	!LO:SIC:v:s=16a#\LL	!	!	!	!	!	!	!	!	!	!	!	!	!	!	!
4c# 4F#\	8ee/	16a\LL	[	.	.	4F#\	.	.	8.e#X\	.	[	8.e#X/	.	[	8.ee#X\	-ki	[
.	.	16cc#\	.	.	.	.	.	.	.	.	.	.	.	.	.	.	.
.	8dd#/J	16f#\	.	.	.	.	.	.	.	.	.	.	.	.	.	.	.
!	!	!LO:SIC:v:s=16a#\JJ	!	!	!	!	!	!	!	!	!	!	!	!	!LO:TX:a:t==B:color=red	!	!
.	.	16a\JJ	.	.	.	.	.	.	16d#\	.	.	16f#/	.	.	16dd#\	u-	.
=40	=40	=40	=40	=40	=40	=40	=40	=40	=40	=40	=40	=40	=40	=40	=40	=40	=40
!	!	!	!	!	!	!	!	!	!	!	!	!LO:ART:color=blue	!	!	!	!	!
2B 2F# 2D# 2GG#\	4dd#/	16f#\LL	.	1ryy	.	4GG#/	.	.	4d#^\	.	.	4f#^/	.	.	4dd#^\	-plo-	.
.	.	16g#\	.	.	.	.	.	.	.	.	.	.	.	.	.	.	.
!	!	!	!LO:HP:b=2	!	!	!	!	!	!	!	!	!	!	!	!	!	!
.	.	16b\	>	.	.	.	.	.	.	.	.	.	.	.	.	.	.
.	.	16dd#\JJ	.	.	.	.	.	.	.	.	.	.	.	.	.	.	.
!	!	!LO:SIC:v:s=16e#\LL	!	!	!	!	!	!	!	!	!	!	!	!	!	!	!
.	8cc#/L	16e\LL	.	.	.	16GG#/	.	.	16d#\	.	.	16f#/	.	.	16cc#\	-tą	.
.	.	16f#\	.	.	.	16r	.	.	16r	.	.	16r	.	.	16r	.	.
!	!	!	!	!	!	!LO:N:vis=16	!	!	!	!	!	!	!	!	!	!	!
.	8b/J	16d#\	.	.	.	8GG#/	o-	.	8d#\	.	.	8f#/	.	.	8b\	o-	.
.	.	16f#\JJ	.	.	.	.	.	.	.	.	.	.	.	.	.	.	.
2C#/	4b/	16d#\LL	.	.	.	2C#/	-zdo-	.	4d#^\	.	.	4e#^/	.	.	4b^/	-zdo-	.
!	!	!LO:SIC:v:s=16e#\	!	!	!	!	!	!	!	!	!	!	!	!	!	!	!
.	.	16e\	.	.	.	.	.	.	.	.	.	.	.	.	.	.	.
!	!	!	!	!	!	!	!	!LO:HP:t=dimin:color=blue	!	!	!	!	!	!LO:HP:t=dimin:color=blue	!	!	!LO:HP:t=dimin:color=blue
.	.	16g#\	]	.	.	.	.	>	.	.	.	.	.	>	.	.	>
.	.	16b\JJ	.	.	.	.	.	.	.	.	.	.	.	.	.	.	.
!	!LO:SIC:v:s=8a#/L	!	!	!	!	!	!	!	!	!	!LO:HP:t=dimin:color=blue	!	!	!	!	!	!
.	8a/L	16c#\LL	.	.	.	.	.	.	8c#\	.	>	8e#/	.	.	8a#/	-bę	.
!	!	!LO:SIC:v:s=16e#\J	!	!	!	!	!	!	!	!	!	!	!	!	!	!	!
.	.	16e\J	.	.	.	.	.	.	.	.	.	.	.	.	.	.	.
.	16g#/L	8B\J	.	.	.	.	.	.	8B\	.	.	8e#/	.	.	8g#/	twej	.
!	!LO:SIC:v:s=16e#/JJ	!	!	!	!	!	!	!	!	!	!	!	!	!	!	!	!
.	16e/JJ	.	.	.	.	.	.	.	.	.	.	.	.	.	.	.	.
*	*v	*v	*	*	*	*	*	*	*	*	*	*	*	*	*	*	*
!!LO:LB:g=original
=41	=41	=41	=41	=41	=41	=41	=41	=41	=41	=41	=41	=41	=41	=41	=41	=41
!	!LO:SIC:v:n=2:s=16A#/	!	!	!	!	!	!	!	!	!	!	!	!	!	!	!
16C# 16CC#/	16f# 16A/	.	1ryy	.	4C#/	-bę...	.	4A#/	.	.	4f#/	.	.	4f#/	skro-	.
(16F#\LL	16r	.	.	.	.	.	.	.	.	.	.	.	.	.	.	.
16A#\	8r	.	.	.	.	.	.	.	.	.	.	.	.	.	.	.
16d#\JJ	.	.	.	.	.	.	.	.	.	.	.	.	.	.	.	.
!	!LO:SIC:v:s=4aa#\	!	!	!	!	!	!	!	!	!	!	!	!	!	!	!
16c#\LL	4aa\	.	.	.	8r	.	.	8F#/	.	.	8c#/	.	.	8a#/	-ni.	.
16A#\	.	.	.	.	.	.	.	.	.	.	.	.	.	.	.	.
16F#\	.	.	.	.	8C#/	i	.	8r	.	.	8r	.	.	8r	.	.
16D#\JJ)	.	.	.	.	.	.	.	.	.	.	.	.	.	.	.	.
16FF#/	4gg#\	.	.	.	8C#/	pie-	.	2r	.	.	2r	.	.	2r	.	.
(16C#\LL	.	.	.	.	.	.	.	.	.	.	.	.	.	.	.	.
16F#\	.	.	.	.	8D#\	-śni	.	.	.	.	.	.	.	.	.	.
16A#\JJ	.	.	.	.	.	.	.	.	.	.	.	.	.	.	.	.
16c#\LL	8.ff#\L	.	.	.	8F#\	nie-	.	.	.	.	.	.	.	.	.	.
16A#\	.	.	.	.	.	.	.	.	.	.	.	.	.	.	.	.
16F#\	.	.	.	.	8A#\	-śmier-	.	.	.	.	.	.	.	.	.	.
!	!LO:SIC:v:s=16ee#\Jk	!	!	!	!	!	!	!	!	!	!	!	!	!	!	!
16C#\JJ)	16ee\Jk	.	.	.	.	.	.	.	.	.	.	.	.	.	.	.
=42	=42	=42	=42	=42	=42	=42	=42	=42	=42	=42	=42	=42	=42	=42	=42	=42
!	!	!	!	!	!	!	!	!	!	!	!	!	!	!LO:TX:t=P:problem:t. 42-49 zapisane odnośnikiem: A=B. vi=tro pag: (t. 32-39)	!	!
!	!LO:TX:b:t=vi:color=blue	!	!	!	!	!	!	!	!	!	!	!	!	!LO:TX:a:t=A=:color=red	!	!
2DD#\@yy	16ryy	.	1ryyyy	.	4.c#\yy	-rtel-	.	1ryyyy	.	.	1ryyyy	.	.	1ryyyy	.	.
.	16F#</LLyy	.	.	.	.	.	.	.	.	.	.	.	.	.	.	.
!	!LO:SIC:v:s=16A#</	!	!	!	!	!	!	!	!	!	!	!	!	!	!	!
.	16A</yy	.	.	.	.	.	.	.	.	.	.	.	.	.	.	.
.	16c#</JJyy	.	.	.	.	.	.	.	.	.	.	.	.	.	.	.
!	!LO:TX:t=P:problem:mixed beam	!	!	!	!	!	!	!	!	!	!	!	!	!	!	!
.	16f#\LLyy	.	.	.	.	.	.	.	.	.	.	.	.	.	.	.
.	16c#</yy	.	.	.	.	.	.	.	.	.	.	.	.	.	.	.
!	!LO:SIC:v:s=16A#</	!	!	!	!	!	!	!	!	!	!	!	!	!	!	!
.	16A</yy	.	.	.	8B#X\yy	-ne	.	.	.	.	.	.	.	.	.	.
.	16F#</JJyy	.	.	.	.	.	.	.	.	.	.	.	.	.	.	.
2GG#\@yy	16ryy	.	.	.	8G#\yy	za	.	.	.	.	.	.	.	.	.	.
.	16F#</LLyy	.	.	.	.	.	.	.	.	.	.	.	.	.	.	.
.	16G#</yy	.	.	.	8F#\yy	so-	.	.	.	.	.	.	.	.	.	.
.	16B#X</JJyy	.	.	.	.	.	.	.	.	.	.	.	.	.	.	.
.	16d#</LLyy	.	.	.	8D#\yy	-bą	.	.	.	.	.	.	.	.	.	.
.	16B#</yy	.	.	.	.	.	.	.	.	.	.	.	.	.	.	.
.	16G#</yy	.	.	.	16E#\LLyy	u-	.	.	.	.	.	.	.	.	.	.
.	16F#</JJyy	.	.	.	16D#\JJyy	.	.	.	.	.	.	.	.	.	.	.
=43	=43	=43	=43	=43	=43	=43	=43	=43	=43	=43	=43	=43	=43	=43	=43	=43
2CC#\yy	16ryy	.	1ryyyy	.	2.C#/yy	-ro-	.	2ryy	.	.	1ryy	.	.	4ryy	.	.
!	!LO:SIC:v:s=16E#</LL	!	!	!	!	!	!	!	!	!	!	!	!	!	!	!
.	16E</LLyy	.	.	.	.	.	.	.	.	.	.	.	.	.	.	.
.	16G#</yy	.	.	.	.	.	.	.	.	.	.	.	.	.	.	.
.	16c#</JJyy	.	.	.	.	.	.	.	.	.	.	.	.	.	.	.
.	16B</LLyy	.	.	.	.	.	.	.	.	.	.	.	.	8ryy	.	.
.	16G#</yy	.	.	.	.	.	.	.	.	.	.	.	.	.	.	.
!	!LO:SIC:v:s=16E#</	!	!	!	!	!	!	!	!	!	!	!	!	!	!	!
.	16E</yy	.	.	.	.	.	.	.	.	.	.	.	.	8c#/yy	i	.
.	16C#</JJyy	.	.	.	.	.	.	.	.	.	.	.	.	.	.	.
!	!LO:TX:t=P:problem:brak 16r	!	!	!	!	!	!	!	!	!	!	!	!	!	!	!
2FF#\yy	16ryyyy	.	.	.	.	.	.	4ryy	.	.	.	.	.	8f#/yy	pie-	.
!	!LO:TX:t=P:problem:mixed beam	!	!	!	!	!	!	!	!	!	!	!	!	!	!	!
!	!LO:SIC:v:s=16A#</LL	!	!	!	!	!	!	!	!	!	!	!	!	!	!	!
.	16A</LLyy	.	.	.	.	.	.	.	.	.	.	.	.	.	.	.
.	16c#\yy	.	.	.	.	.	.	.	.	.	.	.	.	8g#/yy	-śni	.
.	16f#\JJyy	.	.	.	.	.	.	.	.	.	.	.	.	.	.	.
.	16d#</LLyy	.	.	.	8C#/yy	-ni	.	8ryy	.	.	.	.	.	8a#/yy	nie-	.
.	16c#</yy	.	.	.	.	.	.	.	.	.	.	.	.	.	.	.
!	!LO:SIC:v:s=16A#</	!	!	!	!	!	!	!	!	!	!	!	!	!	!	!
.	16A</yy	.	.	.	8ryy	.	.	8C#/yy	i	.	.	.	.	8cc#\yy	-śmier-	.
.	16F#</JJyy	.	.	.	.	.	.	.	.	.	.	.	.	.	.	.
!!LO:LB:g=original
=44	=44	=44	=44	=44	=44	=44	=44	=44	=44	=44	=44	=44	=44	=44	=44	=44
*	*^	*	*	*	*	*	*	*	*	*	*	*	*	*	*	*
2FF#/yy	16ryy	2ryyyy	.	1ryyyy	.	1ryy	.	.	8F#/yy	pie-	.	1ryy	.	.	4.ff#\yy	-tel-	.
!	!LO:SIC:v:s=16A#/LL	!	!	!	!	!	!	!	!	!	!	!	!	!	!	!	!
.	16A/LLyy	.	.	.	.	.	.	.	.	.	.	.	.	.	.	.	.
.	16c#/yy	.	.	.	.	.	.	.	8G#/yy	-śni	.	.	.	.	.	.	.
!	!LO:SIC:v:s=16a#/JJ	!	!	!	!	!	!	!	!	!	!	!	!	!	!	!	!
.	16a/JJyy	.	.	.	.	.	.	.	.	.	.	.	.	.	.	.	.
.	16f#/LLyy	.	.	.	.	.	.	.	8A#/yy	nie-	.	.	.	.	.	.	.
.	16d#/yy	.	.	.	.	.	.	.	.	.	.	.	.	.	.	.	.
.	16c#/yy	.	.	.	.	.	.	.	8c#\yy	-śmier-	.	.	.	.	8ee#\yy	-ne	.
!	!LO:SIC:v:s=16A#/JJ	!	!	!	!	!	!	!	!	!	!	!	!	!	!	!	!
.	16A/JJyy	.	.	.	.	.	.	.	.	.	.	.	.	.	.	.	.
2C#yy 2FF#/yy	16ryy	4ryyyy	.	.	.	.	.	.	4.f#\yy	-tel-	.	.	.	.	8cc#\yy	za	.
!	!LO:SIC:v:s=16A#/LL	!	!	!	!	!	!	!	!	!	!	!	!	!	!	!	!
.	16A/LLyy	.	.	.	.	.	.	.	.	.	.	.	.	.	.	.	.
.	16c#/yy	.	.	.	.	.	.	.	.	.	.	.	.	.	8a#/yy	so-	.
.	16f#/JJyy	.	.	.	.	.	.	.	.	.	.	.	.	.	.	.	.
!	!	!LO:TX:t=P:problem:mixed beam	!	!	!	!	!	!	!	!	!	!	!	!	!	!	!
.	8d#/Lyy	16d#\LLyy	.	.	.	.	.	.	.	.	.	.	.	.	8f#/yy	-bą	.
.	.	16c#\yy	.	.	.	.	.	.	.	.	.	.	.	.	.	.	.
!	!LO:SIC:v:s=8e#/J	!	!	!	!	!	!	!	!	!	!	!	!	!	!	!	!
.	8e/Jyy	16B\yy	.	.	.	.	.	.	16e#/yy	-ne	.	.	.	.	8g#/yy	u-	.
.	.	16G#</JJyy	.	.	.	.	.	.	16d#/yy	u-	.	.	.	.	.	.	.
=45	=45	=45	=45	=45	=45	=45	=45	=45	=45	=45	=45	=45	=45	=45	=45	=45	=45
8FF#/yy	16ryy	4ryyyy	.	1ryyyy	.	4ryy	.	.	8c#/yy	-ro-	.	4ryy	.	.	8a#/yy	-ro-	.
!	!LO:SIC:v:s=16A#/LL	!	!	!	!	!	!	!	!	!	!	!	!	!	!	!	!
.	16A/LLyy	.	.	.	.	.	.	.	.	.	.	.	.	.	.	.	.
8ryy	16c#/yy	.	.	.	.	.	.	.	8c#\yy	-ni,	.	.	.	.	8f#/yy	-ni	.
.	16f#/JJyy	.	.	.	.	.	.	.	.	.	.	.	.	.	.	.	.
!	!LO:SIC:v:s=16a#/LL	!LO:SIC:v:s=8a#\L	!	!	!	!	!	!	!	!	!	!	!	!	!	!	!
(y4F#\yy	16a/LLyy	8a\Lyy	.	.	.	8F#\yy	.	.	8c#\yy	nie-	.	8f#/yy	.	.	8a#/yy	nie-	.
.	16c#/yy	.	.	.	.	.	.	.	.	.	.	.	.	.	.	.	.
.	16f#/yy	8f#\Jyy	.	.	.	8F#\yy	.	.	8c#\yy	-śmier-	.	8f#/yy	.	.	8a#/yy	-śmier-	.
!	!LO:SIC:v:s=16a#/JJ	!	!	!	!	!	!	!	!	!	!	!	!	!	!	!	!
.	16a/JJyy	.	.	.	.	.	.	.	.	.	.	.	.	.	.	.	.
*	*	*	*	*	*	*	*	*	*2\right	*	*	*	*	*	*	*	*
4E#X\yy	16b/LLyy	8b\Lyy	.	.	.	(y4E#X\yy	.	.	2dn\yy	-tel-	.	4gn/yy	.	.	(y4b\yy	-tel-	.
.	16dn/yy	.	.	.	.	.	.	.	.	.	.	.	.	.	.	.	.
.	16gn/yy	8gn\Jyy	.	.	.	.	.	.	.	.	.	.	.	.	.	.	.
.	16b/JJyy	.	.	.	.	.	.	.	.	.	.	.	.	.	.	.	.
4En\yy	16b#X/LLyy	8b#\Lyy	.	.	.	4En\yy	.	.	.	.	.	4g#X/yy	.	.	4b#X\yy	.	.
.	16d/yy	.	.	.	.	.	.	.	.	.	.	.	.	.	.	.	.
.	16g#X/yy	8g#\Jyy	.	.	.	.	.	.	.	.	.	.	.	.	.	.	.
.	16b#/JJyy	.	.	.	.	.	.	.	.	.	.	.	.	.	.	.	.
=46	=46	=46	=46	=46	=46	=46	=46	=46	=46	=46	=46	=46	=46	=46	=46	=46	=46
!LO:TX:b:t==tro.:note=podkreślone na czerwono	!	!	!	!	!	!	!	!	!	!	!	!	!	!	!	!	!
8AAn/)yy	16cc#/LLyy	8cc#\Lyy	.	1ryyyy	.	8AAn/)yy	.	.	8c#\yy	-[ne]	.	8an/yy	.	.	8cc#\)yy	-ne,	.
.	16c#/yy	.	.	.	.	.	.	.	.	.	.	.	.	.	.	.	.
8ryy	16e/yy	8e\Jyy	.	.	.	8ryy	.	.	8ryy	.	.	8ryy	.	.	8ryy	.	.
.	16an/JJyy	.	.	.	.	.	.	.	.	.	.	.	.	.	.	.	.
!	!	!	!	!	!	!	!	!	!LO:SIC:v:s=8een	!	!	!	!	!	!	!	!
(y4An\yy	16cc#/LLyy	8cc#\Lyy	.	.	.	8An\yy	.	.	8e#\yy	.	.	8a/yy	.	.	8cc#\yy	nie-	.
.	16e/yy	.	.	.	.	.	.	.	.	.	.	.	.	.	.	.	.
!	!	!	!	!	!	!	!	!	!LO:SIC:v:s=8een	!	!	!	!	!	!	!	!
.	16a/yy	8a\Jyy	.	.	.	8A\yy	.	.	8e#\yy	.	.	8a/yy	.	.	8cc#\yy	-śmier-	.
.	16cc#/JJyy	.	.	.	.	.	.	.	.	.	.	.	.	.	.	.	.
!	!	!	!	!	!	!	!	!	!	!	!	!	!	!	!LO:ACC:color=blue	!	!
4G#\yy	16ddn/LLyy	8ddn\Lyy	.	.	.	(y4G#\yy	.	.	(y2fn\yy	.	.	(y4b-X/yy	.	.	(y4ddn\yy	-tel-	.
.	16fn/yy	.	.	.	.	.	.	.	.	.	.	.	.	.	.	.	.
.	16b-X/yy	8b-\Jyy	.	.	.	.	.	.	.	.	.	.	.	.	.	.	.
.	16dd/JJyy	.	.	.	.	.	.	.	.	.	.	.	.	.	.	.	.
4Gn\yy	16dd#X/LLyy	8dd#\Lyy	.	.	.	4Gn\yy	.	.	.	.	.	4bn/yy	.	.	4dd#X\yy	.	.
!	!LO:TX:t=P:problem:cauda nie w tą stronę	!	!	!	!	!	!	!	!	!	!	!	!	!	!	!	!
.	16f\yy	.	.	.	.	.	.	.	.	.	.	.	.	.	.	.	.
.	16bn/yy	8bn\Jyy	.	.	.	.	.	.	.	.	.	.	.	.	.	.	.
.	16dd#/JJyy	.	.	.	.	.	.	.	.	.	.	.	.	.	.	.	.
!!LO:PB:g=original
=47	=47	=47	=47	=47	=47	=47	=47	=47	=47	=47	=47	=47	=47	=47	=47	=47	=47
!	!	!	!	!	!	!	!	!	!LO:SIC:v:s=8een\)	!	!	!	!	!	!LO:SIC:v:s=8een\)	!	!
!LO:TX:t=P:problem:brak zakończenia łuku (początek pięciolinii)	!	!	!	!	!	!LO:TX:t=P:problem:brak zakończenia łuku (początek pięciolinii)	!	!	!LO:TX:t=P:problem:brak zakończenia łuku (początek pięciolinii)	!	!	!LO:TX:t=P:problem:brak zakończenia łuku (początek pięciolinii)	!	!	!LO:TX:t=P:problem:brak zakończenia łuku (początek pięciolinii)	!	!
8Cn/)yy	16ee/LLyy	8ee\Lyy	.	1ryyyy	.	8Cn/)yy	.	.	8e#\)yy	.	.	8ccn\)yy	.	.	8ee#\)yy	-[ne]	.
.	16e/yy	.	.	.	.	.	.	.	.	.	.	.	.	.	.	.	.
8ryy	16gn/yy	8gn\Jyy	.	.	.	8ryy	.	.	8ryy	.	.	8ryy	.	.	8ryy	.	.
.	16ccn/JJyy	.	.	.	.	.	.	.	.	.	.	.	.	.	.	.	.
!	!	!	!	!	!	!	!	!	!LO:SIC:v:s=8een\	!	!	!	!	!	!LO:SIC:v:s=8een\	!	!
4cn\yy	16ee/LLyy	4ee\yy	.	.	.	8cn\yy	.	<	8e#\yy	.	<	8gn/yy	.	.	8ee#\yy	pie-	<
.	16g/yy	.	.	.	.	.	.	.	.	.	.	.	.	<	.	.	.
!	!	!	!	!	!	!	!	!	!LO:SIC:v:s=8een\	!	!	!	!	!	!LO:SIC:v:s=8een\	!	!
.	16cc/yy	.	.	.	.	8c\yy	.	.	8e#\yy	.	.	8g/yy	.	.	8ee#\yy	-śni	.
.	16ee/JJyy	.	.	.	.	.	.	.	.	.	.	.	.	.	.	.	.
!	!	!	!	!	!	!	!	!	!	!	!	!	!	!	!LO:SIC:v:s=4een\	!	!
4B\yy	16ee/LLyy	4ee\yy	.	.	.	4B^\yy	.	.	4dn\yy	.	.	4g#X/yy	.	.	4ee#\yy	nie-	.
.	16g#X/yy	.	.	.	.	.	.	.	.	.	.	.	.	.	.	.	.
.	16ddn/yy	.	.	.	.	.	.	.	.	.	.	.	.	.	.	.	.
.	16ee/JJyy	.	.	.	.	.	.	.	.	.	.	.	.	.	.	.	.
4B-X\yy	16ee#/LLyy	4ee#\yy	.	.	.	4B-X^\yy	.	[	4d\yy	.	.	4g#/yy	.	.	4ee#X\yy	-śmier-	[
.	16g#/yy	.	.	.	.	.	.	.	.	.	[	.	.	[	.	.	.
.	16dd/yy	.	.	.	.	.	.	.	.	.	.	.	.	.	.	.	.
!	!	!	!	!	!	!	!	!LO:DY:b	!	!	!	!	!	!	!	!	!
.	16ee#/JJyy	.	.	.	.	.	.	fy	.	.	fy	.	.	fy	.	.	fy
=48	=48	=48	=48	=48	=48	=48	=48	=48	=48	=48	=48	=48	=48	=48	=48	=48	=48
*^	*	*	*	*	*	*	*	*	*	*	*	*	*	*	*	*	*
!	!	!	!	!	!	!	!	!	!LO:DY:a	!	!	!	!	!	!	!	!	!
2An/yy	2Dnyy 2AAn\yy	4ff#/yy	16ddn\LLyy	.	1ryyyy	.	4.An\yy	.	fy	4.dn\yy	.	.	4.an/yy	.	.	(y4ff#\yy	-tel-	.
.	.	.	16f#\yy	.	.	.	.	.	.	.	.	.	.	.	.	.	.	.
!	!	!	!LO:SIC:v:s=16a#\	!	!	!	!	!	!	!	!	!	!	!	!	!	!	!
.	.	.	16a\yy	.	.	.	.	.	.	.	.	.	.	.	.	.	.	.
.	.	.	16ff#\JJyy	.	.	.	.	.	.	.	.	.	.	.	.	.	.	.
.	.	16ee/LLyy	8ee\Lyy	.	.	.	.	.	.	.	.	.	.	.	.	8een\)yy	.	.
!	!	!LO:SIC:v:s=16a#/	!	!	!	!	!	!	!	!	!	!	!	!	!	!	!	!
.	.	16a/yy	.	.	.	.	.	.	.	.	.	.	.	.	.	.	.	.
.	.	16dd/yy	8dd\Jyy	.	.	.	8AAn/yy	.	.	8An/yy	.	.	8f#/yy	.	.	8ddn\yy	-ne	.
.	.	16f#/JJyy	.	.	.	.	.	.	.	.	.	.	.	.	.	.	.	.
!	!	!	!	!	!	!	!	!	!LO:HP:color=blue	!	!	!LO:HP:color=blue	!	!	!LO:DY:a	!	!	!LO:DY:a
4A/yy	4A\yy	16cc#/LLyy	4ryyyy	.	.	.	4A\yy	.	>	(y4c#\yy	.	>	4.f#/yy	.	>	(y4cc#\yy	z kto-	>
.	.	16c#/yy	.	.	.	.	.	.	.	.	.	.	.	.	.	.	.	.
.	.	16f#/yy	.	.	.	.	.	.	.	.	.	.	.	.	.	.	.	.
.	.	16cc#/JJyy	.	.	.	.	.	.	.	.	.	.	.	.	.	.	.	.
4G#\yy	4ryyyy	16b#X/LLyy	8b#\Lyy	.	.	.	4G#X\yy	.	]]	8B#X\)yy	.	.	.	.	.	8b#X\)yy	.	.
.	.	16f#/yy	.	.	.	.	.	.	.	.	.	.	.	.	.	.	.	.
.	.	16bn/yy	8bn\Jyy	.	.	.	.	.	.	8Bn\yy	.	]]	8e#X/yy	.	]]	8bn\yy	-rych	]]
.	.	16e#X/JJyy	.	.	.	.	.	.	.	.	.	.	.	.	.	.	.	.
*v	*v	*	*	*	*	*	*	*	*	*	*	*	*	*	*	*	*	*
=49	=49	=49	=49	=49	=49	=49	=49	=49	=49	=49	=49	=49	=49	=49	=49	=49	=49
*	*	*	*	*	*	*2\right	*	*	*	*	*	*	*	*	*	*	*
!	!	!	!	!	!	!	!	!LO:HP:b:color=blue	!	!	!LO:HP:b:color=blue	!	!	!	!	!	!
!	!LO:SIC:v:n=1:s=16a#LL	!	!	!	!	!	!	!LO:DY:rj:color=blue	!	!	!LO:DY:rj	!	!	!LO:DY:rj	!	!	!LO:DY:rj
2F#\yy	16aLLyy 16f#/yy	4ryyyy	.	1ryyyy	.	2F#\yy	.	py <	(y>4.A#X/yy	.	py <	2.f#/yy	.	py <	(y4.a#X/yy	wie-	py <
.	16c#/yy	.	.	.	.	.	.	.	.	.	.	.	.	.	.	.	.
.	16f#/yy	.	.	.	.	.	.	.	.	.	.	.	.	.	.	.	.
!	!LO:SIC:v:s=16a#/JJ	!	!LO:HP:b=2	!	!	!	!	!	!	!	!	!	!	!	!	!	!
.	16a/JJyy	.	<	.	.	.	.	.	.	.	.	.	.	.	.	.	.
!	!LO:SIC:v:s=8a#/L	!LO:SIC:v:s=16a#\LL	!	!	!	!	!	!	!	!	!	!	!	!	!	!	!
.	8a/Lyy	16a\LLyy	.	.	.	.	.	.	.	.	.	.	.	.	.	.	.
.	.	16c#\yy	.	.	.	.	.	.	.	.	.	.	.	.	.	.	.
.	8b/Jyy	16b\yy	.	.	.	.	.	.	8B/yy	.	.	.	.	.	8b/yy	.	.
.	.	16f#\JJyy	.	.	.	.	.	.	.	.	.	.	.	.	.	.	.
4A#yy 4F#\yy	8b#X/Lyy	16b#\LLyy	.	.	.	4F#\yy	.	.	8B#X/Lyy	.	.	.	.	.	8b#X\Lyy	.	.
.	.	16c#\yy	.	.	.	.	.	.	.	.	.	.	.	.	.	.	.
.	8cc#/yy	16f#\yy	.	.	.	.	.	[	8c#/J)yy	.	.	.	.	.	8cc#\J)yy	.	.
.	.	16g#\JJyy	.	.	.	.	.	.	.	.	.	.	.	.	.	.	.
!	!LO:SIC:v:s=8ee#/	!LO:SIC:v:s=16a#\LL	!	!	!	!	!	!	!	!	!	!	!	!	!	!	!
4c#yy 4F#\yy	8ee/yy	16a\LLyy	[	.	.	4F#\yy	.	.	8.e#X\yy	.	[	8.e#X/yy	.	[	8.ee#X\yy	-ki	[
.	.	16cc#\yy	.	.	.	.	.	.	.	.	.	.	.	.	.	.	.
.	8dd#/Jyy	16f#\yy	.	.	.	.	.	.	.	.	.	.	.	.	.	.	.
!	!	!LO:SIC:v:s=16a#\JJ	!	!	!	!	!	!	!	!	!	!	!	!	!LO:TX:a:t==B:color=red	!	!
.	.	16a\JJyy	.	.	.	.	.	.	16d#\yy	.	.	16f#/yy	.	.	16dd#\yy	u-	.
=50	=50	=50	=50	=50	=50	=50	=50	=50	=50	=50	=50	=50	=50	=50	=50	=50	=50
2B 2F# 2D# 2GG#\	(4dd#/	16f#\LL	.	1ryy	.	4GG#/	.	.	4d#\	.	.	4f#/	.	.	4dd#\	.	.
.	.	16g#\	.	.	.	.	.	.	.	.	.	.	.	.	.	.	.
.	.	16b\	.	.	.	.	.	.	.	.	.	.	.	.	.	.	.
.	.	16dd#\JJ	.	.	.	.	.	.	.	.	.	.	.	.	.	.	.
!	!	!LO:SIC:v:s=16e#\LL	!	!	!	!	!	!	!	!	!	!	!	!	!	!	!
.	8cc#/L	16e\LL	.	.	.	16GG#/	.	.	16d#\	.	.	16f#/	.	.	16cc#\	.	.
.	.	16f#\	.	.	.	16r	.	.	16r	.	.	16r	.	.	16r	.	.
.	8b/J)	16d#\	.	.	.	8GG#/	o-	.	8d#\	.	.	8f#/	.	.	8b\	.	.
.	.	16f#\JJ	.	.	.	.	.	.	.	.	.	.	.	.	.	.	.
2C#/	(4b/	16d#\LL	.	.	.	4C#/	-zdo-	.	4d#^\	.	.	4e#^/	.	.	4b^/	.	.
!	!	!LO:SIC:v:s=16e#\	!	!	!	!	!	!	!	!	!	!	!	!	!	!	!
.	.	16e\	.	.	.	.	.	.	.	.	.	.	.	.	.	.	.
.	.	16g#\	.	.	.	.	.	.	.	.	.	.	.	.	.	.	.
.	.	16b\JJ	.	.	.	.	.	.	.	.	.	.	.	.	.	.	.
!	!LO:SIC:v:s=8a#/L	!	!	!	!	!	!	!	!	!	!	!	!	!	!	!	!
.	8a/L	16c#\LL	.	.	.	8C#/	-bę	.	8c#\	.	.	8e#/	.	.	8a#/	.	.
!	!	!LO:SIC:v:s=16e#\J	!	!	!	!	!	!	!	!	!	!	!	!	!	!	!
.	.	16e\J	.	.	.	.	.	.	.	.	.	.	.	.	.	.	.
.	16g#/L	8B\J	.	.	.	8C#/	twych	.	8B\	.	.	8e#/	.	.	8g#/	.	.
!	!LO:SIC:v:s=16e#/JJ)	!	!	!	!	!	!	!	!	!	!	!	!	!	!	!	!
.	16e/JJ)	.	.	.	.	.	.	.	.	.	.	.	.	.	.	.	.
*	*v	*v	*	*	*	*	*	*	*	*	*	*	*	*	*	*	*
!!LO:PB:g=original
=51	=51	=51	=51	=51	=51	=51	=51	=51	=51	=51	=51	=51	=51	=51	=51	=51
!	!LO:SIC:v:n=2:s=8A#/	!	!	!	!	!	!	!	!	!	!	!	!	!	!	!
8C# 8FF#/	8f# 8A/	.	1ryy	.	8F#\	skro-	.	1ryy	.	.	1ryy	.	.	1ryy	.	.
!	!LO:SIC:v:n=2:s=8A#:/	!LO:DY:rj	!	!	!	!	!	!	!	!	!	!	!	!	!	!
8F#:L 8C#: 8FF#:/	8c#:L 8A:/	p	.	.	8C#/	-ni	.	.	.	.	.	.	.	.	.	.
!	!LO:SIC:v:n=3:s=8A#:/	!	!	!	!	!	!	!	!	!	!	!	!	!	!	!
8F#: 8C#: 8FF#:/	8d#: 8c#: 8A:/	.	.	.	8C#/	z któ-	.	.	.	.	.	.	.	.	.	.
!	!LO:SIC:v:n=3:s=8A#:/	!	!	!	!	!	!	!	!	!	!	!	!	!	!	!
8F#:J 8C#: 8FF#:/	8e#:J 8c#: 8A:/	.	.	.	8C#/	-rych	.	.	.	.	.	.	.	.	.	.
*tremolo	*	*	*	*	*	*	*	*	*	*	*	*	*	*	*	*
!	!LO:SIC:v:n=3:s=8A#:/	!	!	!	!	!	!	!	!	!	!	!	!	!	!	!
8F#:L 8C#: 8FF#:/	8f#:L 8c#: 8A:/	.	.	.	4F#\	wie-	.	.	.	.	.	.	.	.	.	.
8F# 8C# 8FF#/	8g#: 8f#: 8c#:/	.	.	.	.	.	.	.	.	.	.	.	.	.	.	.
!	!LO:SIC:v:n=1:s=8a#:	!	!	!	!	!	!	!	!	!	!	!	!	!	!	!
8F# 8C# 8FF#/	8a: 8f#: 8c#:/	.	.	.	8F#\	-ki	.	.	.	.	.	.	.	.	.	.
8F#J 8C# 8FF#/	8b:J 8f#: 8c#:/	.	.	.	8F#\	u-	.	.	.	.	.	.	.	.	.	.
=52	=52	=52	=52	=52	=52	=52	=52	=52	=52	=52	=52	=52	=52	=52	=52	=52
!	!LO:SIC:v:n=2:s=8a#:	!	!	!	!	!	!	!	!	!	!	!	!	!	!	!
8F#:L 8C#: 8FF#:/	8cc#:L 8a: 8f#: 8c#:/	.	1ryy	.	4A#\	-plo-	.	1ryy	.	.	1r	.	.	1r	.	.
!	!LO:SIC:v:n=1:s=8a#:	!	!	!	!	!	!	!	!	!	!	!	!	!	!	!
8F# 8C# 8FF#/	8a: 8f#: 8c#:/	.	.	.	.	.	.	.	.	.	.	.	.	.	.	.
8F# 8C# 8FF#/	8b: 8f#: 8c#:/	.	.	.	8F#\	-tą	.	.	.	.	.	.	.	.	.	.
!	!LO:SIC:v:n=2:s=8a#:	!	!	!	!	!	!	!	!	!	!	!	!	!	!	!
8F# 8C# 8FF#/	8cc#:J 8a: 8f#: 8c#:/	.	.	.	8F#\	o-	.	.	.	.	.	.	.	.	.	.
!	!LO:TX:b:t=cres-cen-do.:problem:dynamics with extention lines	!LO:HP:t=cres-cen-do.	!	!	!	!	!	!	!	!	!	!	!	!	!	!
!	!LO:SIC:v:n=3:s=8a#:	!	!	!	!	!	!	!	!	!	!	!	!	!	!	!
8F# 8C# 8FF#/	8dd#:L 8cc#: 8a: 8f#:/	<	.	.	4c#\	-zdo-	.	.	.	.	.	.	.	.	.	.
!	!LO:SIC:v:n=1:s=8ee#:	!	!	!	!	!	!	!	!	!	!	!	!	!	!	!
!	!LO:SIC:v:n=3:s=8a#:	!	!	!	!	!	!	!	!	!	!	!	!	!	!	!
8F# 8C# 8FF#/	8ee: 8cc#: 8a: 8f#:/	.	.	.	.	.	.	.	.	.	.	.	.	.	.	.
!	!LO:SIC:v:n=3:s=8a#:	!	!	!	!	!	!	!	!	!	!	!	!	!	!	!
8F# 8C# 8FF#/	8ff#: 8cc#: 8a: 8f#:/	.	.	.	8A#\	-bę	.	.	.	.	.	.	.	.	.	.
!	!LO:SIC:v:n=4:s=8a#:/	!	!	!	!	!	!	!	!	!	!	!	!	!	!	!
8F#J 8C# 8FF#/	8gg#:J 8ff#: 8cc#: 8a:/	.	.	.	8F#\	twych	.	.	.	.	.	.	.	.	.	.
=53	=53	=53	=53	=53	=53	=53	=53	=53	=53	=53	=53	=53	=53	=53	=53	=53
!	!LO:SIC:v:n=1:s=8aa#:L	!	!	!	!	!	!	!	!	!	!	!	!	!	!	!
!	!LO:SIC:v:n=4:s=8a#:/	!	!	!	!	!	!	!	!	!	!	!	!	!	!	!
8F#L 8C# 8FF#/	8aa:L 8ff#: 8cc#: 8a:/	.	1ryy	.	4C#/	skro-	.	4r	.	.	1r	.	.	1r	.	.
!	!LO:SIC:v:n=2:s=8a#:	!	!	!	!	!	!	!	!	!	!	!	!	!	!	!
8F# 8C# 8FF#/	8cc#: 8a: 8f#:/	.	.	.	.	.	.	.	.	.	.	.	.	.	.	.
!	!LO:SIC:v:n=3:s=8a#:	!	!	!	!	!	!	!	!	!	!	!	!	!	!	!
8F# 8C# 8FF#/	8dd#: 8cc#: 8a: 8f#:/	.	.	.	8F#\	-ńi	.	8F#/	z któ-	.	.	.	.	.	.	.
!	!LO:SIC:v:n=1:s=8ee#:J	!	!	!	!	!	!	!	!	!	!	!	!	!	!	!
!	!LO:SIC:v:n=3:s=8a#:	!	!	!	!	!	!	!	!	!	!	!	!	!	!	!
8F# 8C# 8FF#/	8ee:J 8cc#: 8a: 8f#:/	.	.	.	8F#\	z nich	.	8F#/	-rych	.	.	.	.	.	.	.
!	!LO:SIC:v:n=3:s=8a#:	!	!	!	!	!	!	!	!	!	!	!	!	!	!	!
8F# 8C# 8FF#/	8ff#:L 8cc#: 8a: 8f#:/	.	.	.	4A#\	wie-	.	4A#/	wie-	.	.	.	.	.	.	.
!	!LO:SIC:v:n=4:s=8a#:/	!	!	!	!	!	!	!	!	!	!	!	!	!	!	!
8F# 8C# 8FF#/	8gg# 8ff# 8cc# 8a/	.	.	.	.	.	.	.	.	.	.	.	.	.	.	.
!	!LO:SIC:v:n=1:s=8aa#:	!	!	!	!	!	!	!	!	!	!	!	!	!	!	!
!	!LO:SIC:v:n=4:s=8a#:/	!	!	!	!	!	!	!	!	!	!	!	!	!	!	!
8F# 8C# 8FF#/	8aa 8ff# 8cc# 8a/	.	.	.	8F#\	-ki	.	8F#/	-ki	.	.	.	.	.	.	.
8F#J 8C# 8FF#/	8bbJ 8ff# 8cc#/	.	.	.	8F#\	.	.	8F#/	u-	.	.	.	.	.	.	.
*Xtremolo	*	*	*	*	*	*	*	*	*	*	*	*	*	*	*	*
=54	=54	=54	=54	=54	=54	=54	=54	=54	=54	=54	=54	=54	=54	=54	=54	=54
!	!LO:SIC:v:n=2:s=8aa#	!	!	!	!	!	!	!	!	!	!	!	!	!	!	!
8F#@ 8C#@ 8FF#/@	8ccc#L 8aa 8ff# 8cc#/	.	1ryy	.	4c#\	.	.	4c#\	-plo-	.	4r	.	.	2r	.	.
!	!LO:SIC:v:n=3:s=8a#:	!	!	!	!	!	!	!	!	!	!	!	!	!	!	!
8F#:L 8C#: 8FF#:/	8ff#: 8cc#: 8a:/	.	.	.	.	.	.	.	.	.	.	.	.	.	.	.
!	!LO:SIC:v:n=4:s=8a#:/	!	!	!	!	!	!	!	!	!	!	!	!	!	!	!
8E#: 8C#: 8EE#:/	8gg#: 8ff#: 8cc#: 8a:/	.	.	.	8A#\	.	.	8A#\	-tą	.	8r	.	.	.	.	.
!	!LO:SIC:v:n=1:s=8aa#:J	!	!	!	!	!	!	!	!	!	!	!	!	!	!	!
!	!LO:SIC:v:n=4:s=8a#:/	!	!	!	!	!	!	!	!	!	!	!	!	!	!	!
8D#:J 8C#: 8FF#: 8DD#:/	8aa:J 8ff#: 8cc#: 8a:/	.	.	.	8F#\	.	.	8c#\	o-	.	8c#/	o-	.	.	.	.
8C#L 8FF# 8CC#/	8bbL 8ff# 8cc# 8b/	.	.	.	4F#\	.	.	4f#\	-zdo-	.	4f#/	-zdo-	.	4r	.	.
8BB 8FF# 8BBB/	8ccc# 8ff# 8cc#/	.	.	.	.	.	.	.	.	.	.	.	.	.	.	.
8AA# 8DD# 8AAA#/	8ddd# 8ccc# 8ff# 8dd#/	.	.	.	8F#\	.	.	8c#\	-bę	.	8c#/	-bę	.	8r	.	.
!	!LO:SIC:v:n=1:s=8eee#J	!	!	!	!	!	!	!	!	!	!	!	!	!	!	!
!	!LO:SIC:v:n=4:s=8ee#/	!	!	!	!	!	!	!	!	!	!	!	!	!	!	!
8GG#J 8CC# 8GGG#/	8eeeJ 8ccc# 8ff# 8ee/	[	.	.	8c#\	.	.	8c#\	.	.	8cc# 8c#/	twych	.	8cc#\	twych	.
!!LO:LB:g=original
=55	=55	=55	=55	=55	=55	=55	=55	=55	=55	=55	=55	=55	=55	=55	=55	=55
*tremolo	*tremolo	*	*	*	*	*	*	*	*	*	*	*	*	*	*	*
*8ba	*2\right	*	*	*	*	*	*	*	*	*	*	*	*	*	*	*
!LO:TX:b:t=8 baſso	!LO:SIC:v:n=2:s=32aa#	!LO:DY:rj	!	!	!	!	!	!	!	!	!	!	!	!	!	!
32FF#LLL 32CC# 32FFF#/	32fff#LLL 32aa 32ff#\	ff	1ryy	.	[1F#	.	.	[1f# 1c#	.	.	[>1a#	.	.	[1ff#	skro-	.
!	!LO:SIC:v:n=2:s=32aa#	!	!	!	!	!	!	!	!	!	!	!	!	!	!	!
32FF# 32CC# 32FFF#/	32fff# 32aa 32ff#\	.	.	.	.	.	.	.	.	.	.	.	.	.	.	.
!	!LO:SIC:v:n=2:s=32aa#	!	!	!	!	!	!	!	!	!	!	!	!	!	!	!
32FF# 32CC# 32FFF#/	32fff# 32aa 32ff#\	.	.	.	.	.	.	.	.	.	.	.	.	.	.	.
!	!LO:SIC:v:n=2:s=32aa#	!	!	!	!	!	!	!	!	!	!	!	!	!	!	!
32FF# 32CC# 32FFF#/	32fff# 32aa 32ff#\	.	.	.	.	.	.	.	.	.	.	.	.	.	.	.
!	!LO:SIC:v:n=2:s=32aa#	!	!	!	!	!	!	!	!	!	!	!	!	!	!	!
32FF# 32CC# 32FFF#/	32fff# 32aa 32ff#\	.	.	.	.	.	.	.	.	.	.	.	.	.	.	.
!	!LO:SIC:v:n=2:s=32aa#	!	!	!	!	!	!	!	!	!	!	!	!	!	!	!
32FF# 32CC# 32FFF#/	32fff# 32aa 32ff#\	.	.	.	.	.	.	.	.	.	.	.	.	.	.	.
!	!LO:SIC:v:n=2:s=32aa#	!	!	!	!	!	!	!	!	!	!	!	!	!	!	!
32FF# 32CC# 32FFF#/	32fff# 32aa 32ff#\	.	.	.	.	.	.	.	.	.	.	.	.	.	.	.
!	!LO:SIC:v:n=2:s=32aa#	!	!	!	!	!	!	!	!	!	!	!	!	!	!	!
32FF# 32CC# 32FFF#/	32fff# 32aa 32ff#\	.	.	.	.	.	.	.	.	.	.	.	.	.	.	.
!	!LO:SIC:v:n=2:s=32aa#	!	!	!	!	!	!	!	!	!	!	!	!	!	!	!
32FF# 32CC# 32FFF#/	32fff# 32aa 32ff#\	.	.	.	.	.	.	.	.	.	.	.	.	.	.	.
!	!LO:SIC:v:n=2:s=32aa#	!	!	!	!	!	!	!	!	!	!	!	!	!	!	!
32FF# 32CC# 32FFF#/	32fff# 32aa 32ff#\	.	.	.	.	.	.	.	.	.	.	.	.	.	.	.
!	!LO:SIC:v:n=2:s=32aa#	!	!	!	!	!	!	!	!	!	!	!	!	!	!	!
32FF# 32CC# 32FFF#/	32fff# 32aa 32ff#\	.	.	.	.	.	.	.	.	.	.	.	.	.	.	.
!	!LO:SIC:v:n=2:s=32aa#	!	!	!	!	!	!	!	!	!	!	!	!	!	!	!
32FF# 32CC# 32FFF#/	32fff# 32aa 32ff#\	.	.	.	.	.	.	.	.	.	.	.	.	.	.	.
!	!LO:SIC:v:n=2:s=32aa#	!	!	!	!	!	!	!	!	!	!	!	!	!	!	!
32FF# 32CC# 32FFF#/	32fff# 32aa 32ff#\	.	.	.	.	.	.	.	.	.	.	.	.	.	.	.
!	!LO:SIC:v:n=2:s=32aa#	!	!	!	!	!	!	!	!	!	!	!	!	!	!	!
32FF# 32CC# 32FFF#/	32fff# 32aa 32ff#\	.	.	.	.	.	.	.	.	.	.	.	.	.	.	.
!	!LO:SIC:v:n=2:s=32aa#	!	!	!	!	!	!	!	!	!	!	!	!	!	!	!
32FF# 32CC# 32FFF#/	32fff# 32aa 32ff#\	.	.	.	.	.	.	.	.	.	.	.	.	.	.	.
!	!LO:SIC:v:n=2:s=32aa#	!	!	!	!	!	!	!	!	!	!	!	!	!	!	!
32FF# 32CC# 32FFF#/	32fff#JJJ 32aa 32ff#\	.	.	.	.	.	.	.	.	.	.	.	.	.	.	.
!	!LO:SIC:v:n=2:s=32aa#	!	!	!	!	!	!	!	!	!	!	!	!	!	!	!
32FF# 32CC# 32FFF#/	32ddd#LLL 32aa 32ff#\	.	.	.	.	.	.	.	.	.	.	.	.	.	.	.
!	!LO:SIC:v:n=2:s=32aa#	!	!	!	!	!	!	!	!	!	!	!	!	!	!	!
32FF# 32CC# 32FFF#/	32ddd# 32aa 32ff#\	.	.	.	.	.	.	.	.	.	.	.	.	.	.	.
!	!LO:SIC:v:n=2:s=32aa#	!	!	!	!	!	!	!	!	!	!	!	!	!	!	!
32FF# 32CC# 32FFF#/	32ddd# 32aa 32ff#\	.	.	.	.	.	.	.	.	.	.	.	.	.	.	.
!	!LO:SIC:v:n=2:s=32aa#	!	!	!	!	!	!	!	!	!	!	!	!	!	!	!
32FF# 32CC# 32FFF#/	32ddd# 32aa 32ff#\	.	.	.	.	.	.	.	.	.	.	.	.	.	.	.
!	!LO:SIC:v:n=2:s=32aa#	!	!	!	!	!	!	!	!	!	!	!	!	!	!	!
32FF# 32CC# 32FFF#/	32ddd# 32aa 32ff#\	.	.	.	.	.	.	.	.	.	.	.	.	.	.	.
!	!LO:SIC:v:n=2:s=32aa#	!	!	!	!	!	!	!	!	!	!	!	!	!	!	!
32FF# 32CC# 32FFF#/	32ddd# 32aa 32ff#\	.	.	.	.	.	.	.	.	.	.	.	.	.	.	.
!	!LO:SIC:v:n=2:s=32aa#	!	!	!	!	!	!	!	!	!	!	!	!	!	!	!
32FF# 32CC# 32FFF#/	32ddd# 32aa 32ff#\	.	.	.	.	.	.	.	.	.	.	.	.	.	.	.
!	!LO:SIC:v:n=2:s=32aa#	!	!	!	!	!	!	!	!	!	!	!	!	!	!	!
32FF# 32CC# 32FFF#/	32ddd#JJJ 32aa 32ff#\	.	.	.	.	.	.	.	.	.	.	.	.	.	.	.
!	!LO:SIC:v:n=2:s=32aa#	!	!	!	!	!	!	!	!	!	!	!	!	!	!	!
32FF# 32CC# 32FFF#/	32ccc#LLL 32aa 32ff#\	.	.	.	.	.	.	.	.	.	.	.	.	.	.	.
!	!LO:SIC:v:n=2:s=32aa#	!	!	!	!	!	!	!	!	!	!	!	!	!	!	!
32FF# 32CC# 32FFF#/	32ccc# 32aa 32ff#\	.	.	.	.	.	.	.	.	.	.	.	.	.	.	.
!	!LO:SIC:v:n=2:s=32aa#	!	!	!	!	!	!	!	!	!	!	!	!	!	!	!
32FF# 32CC# 32FFF#/	32ccc# 32aa 32ff#\	.	.	.	.	.	.	.	.	.	.	.	.	.	.	.
!	!LO:SIC:v:n=2:s=32aa#	!	!	!	!	!	!	!	!	!	!	!	!	!	!	!
32FF# 32CC# 32FFF#/	32ccc# 32aa 32ff#\	.	.	.	.	.	.	.	.	.	.	.	.	.	.	.
!	!LO:SIC:v:n=2:s=32aa#	!	!	!	!	!	!	!	!	!	!	!	!	!	!	!
32FF# 32CC# 32FFF#/	32ccc# 32aa 32ff#\	.	.	.	.	.	.	.	.	.	.	.	.	.	.	.
!	!LO:SIC:v:n=2:s=32aa#	!	!	!	!	!	!	!	!	!	!	!	!	!	!	!
32FF# 32CC# 32FFF#/	32ccc# 32aa 32ff#\	.	.	.	.	.	.	.	.	.	.	.	.	.	.	.
!	!LO:SIC:v:n=2:s=32aa#	!	!	!	!	!	!	!	!	!	!	!	!	!	!	!
32FF# 32CC# 32FFF#/	32ccc# 32aa 32ff#\	.	.	.	.	.	.	.	.	.	.	.	.	.	.	.
!	!LO:SIC:v:n=2:s=32aa#	!	!	!	!	!	!	!	!	!	!	!	!	!	!	!
32FF#JJJ 32CC# 32FFF#/	32ccc#JJJ 32aa 32ff#\	.	.	.	.	.	.	.	.	.	.	.	.	.	.	.
=56	=56	=56	=56	=56	=56	=56	=56	=56	=56	=56	=56	=56	=56	=56	=56	=56
*rep	*	*	*	*	*	*	*	*	*	*	*	*	*	*	*	*
!	!LO:SIC:v:n=1:s=32aa#LL	!	!	!	!	!	!	!	!	!	!	!	!	!	!	!
32FF#LLL 32CC# 32FFF#/	32aaLLL 32ff# 32cc#\	.	1ryy	.	1F#]	.	.	1f#] 1c#	.	.	1a#]	.	.	1ff#]	.	.
!	!LO:SIC:v:n=1:s=32aa#	!	!	!	!	!	!	!	!	!	!	!	!	!	!	!
32FF# 32CC# 32FFF#/	32aa 32ff# 32cc#\	.	.	.	.	.	.	.	.	.	.	.	.	.	.	.
!	!LO:SIC:v:n=1:s=32aa#	!	!	!	!	!	!	!	!	!	!	!	!	!	!	!
32FF# 32CC# 32FFF#/	32aa 32ff# 32cc#\	.	.	.	.	.	.	.	.	.	.	.	.	.	.	.
!	!LO:SIC:v:n=1:s=32aa#	!	!	!	!	!	!	!	!	!	!	!	!	!	!	!
32FF# 32CC# 32FFF#/	32aa 32ff# 32cc#\	.	.	.	.	.	.	.	.	.	.	.	.	.	.	.
!	!LO:SIC:v:n=1:s=32aa#	!	!	!	!	!	!	!	!	!	!	!	!	!	!	!
32FF# 32CC# 32FFF#/	32aa 32ff# 32cc#\	.	.	.	.	.	.	.	.	.	.	.	.	.	.	.
!	!LO:SIC:v:n=1:s=32aa#	!	!	!	!	!	!	!	!	!	!	!	!	!	!	!
32FF# 32CC# 32FFF#/	32aa 32ff# 32cc#\	.	.	.	.	.	.	.	.	.	.	.	.	.	.	.
!	!LO:SIC:v:n=1:s=32aa#	!	!	!	!	!	!	!	!	!	!	!	!	!	!	!
32FF# 32CC# 32FFF#/	32aa 32ff# 32cc#\	.	.	.	.	.	.	.	.	.	.	.	.	.	.	.
!	!LO:SIC:v:n=1:s=32aa#JJJ	!	!	!	!	!	!	!	!	!	!	!	!	!	!	!
32FF# 32CC# 32FFF#/	32aaJJJ 32ff# 32cc#\	.	.	.	.	.	.	.	.	.	.	.	.	.	.	.
!	!LO:SIC:v:n=3:s=32a#\	!	!	!	!	!	!	!	!	!	!	!	!	!	!	!
32FF# 32CC# 32FFF#/	32ff#LLL 32cc# 32a\	.	.	.	.	.	.	.	.	.	.	.	.	.	.	.
!	!LO:SIC:v:n=3:s=32a#\	!	!	!	!	!	!	!	!	!	!	!	!	!	!	!
32FF# 32CC# 32FFF#/	32ff# 32cc# 32a\	.	.	.	.	.	.	.	.	.	.	.	.	.	.	.
!	!LO:SIC:v:n=3:s=32a#\	!	!	!	!	!	!	!	!	!	!	!	!	!	!	!
32FF# 32CC# 32FFF#/	32ff# 32cc# 32a\	.	.	.	.	.	.	.	.	.	.	.	.	.	.	.
!	!LO:SIC:v:n=3:s=32a#\	!	!	!	!	!	!	!	!	!	!	!	!	!	!	!
32FF# 32CC# 32FFF#/	32ff# 32cc# 32a\	.	.	.	.	.	.	.	.	.	.	.	.	.	.	.
!	!LO:SIC:v:n=3:s=32a#\	!	!	!	!	!	!	!	!	!	!	!	!	!	!	!
32FF# 32CC# 32FFF#/	32ff# 32cc# 32a\	.	.	.	.	.	.	.	.	.	.	.	.	.	.	.
!	!LO:SIC:v:n=3:s=32a#\	!	!	!	!	!	!	!	!	!	!	!	!	!	!	!
32FF# 32CC# 32FFF#/	32ff# 32cc# 32a\	.	.	.	.	.	.	.	.	.	.	.	.	.	.	.
!	!LO:SIC:v:n=3:s=32a#\	!	!	!	!	!	!	!	!	!	!	!	!	!	!	!
32FF# 32CC# 32FFF#/	32ff# 32cc# 32a\	.	.	.	.	.	.	.	.	.	.	.	.	.	.	.
!	!LO:SIC:v:n=3:s=32a#\	!	!	!	!	!	!	!	!	!	!	!	!	!	!	!
32FF# 32CC# 32FFF#/	32ff#JJJ 32cc# 32a\	.	.	.	.	.	.	.	.	.	.	.	.	.	.	.
!	!LO:SIC:v:n=2:s=32a#	!	!	!	!	!	!	!	!	!	!	!	!	!	!	!
32FF# 32CC# 32FFF#/	32dd#LLL 32a 32f#/	.	.	.	.	.	.	.	.	.	.	.	.	.	.	.
!	!LO:SIC:v:n=2:s=32a#	!	!	!	!	!	!	!	!	!	!	!	!	!	!	!
32FF# 32CC# 32FFF#/	32dd# 32a 32f#/	.	.	.	.	.	.	.	.	.	.	.	.	.	.	.
!	!LO:SIC:v:n=2:s=32a#	!	!	!	!	!	!	!	!	!	!	!	!	!	!	!
32FF# 32CC# 32FFF#/	32dd# 32a 32f#/	.	.	.	.	.	.	.	.	.	.	.	.	.	.	.
!	!LO:SIC:v:n=2:s=32a#	!	!	!	!	!	!	!	!	!	!	!	!	!	!	!
32FF# 32CC# 32FFF#/	32dd# 32a 32f#/	.	.	.	.	.	.	.	.	.	.	.	.	.	.	.
!	!LO:SIC:v:n=2:s=32a#	!	!	!	!	!	!	!	!	!	!	!	!	!	!	!
32FF# 32CC# 32FFF#/	32dd# 32a 32f#/	.	.	.	.	.	.	.	.	.	.	.	.	.	.	.
!	!LO:SIC:v:n=2:s=32a#	!	!	!	!	!	!	!	!	!	!	!	!	!	!	!
32FF# 32CC# 32FFF#/	32dd# 32a 32f#/	.	.	.	.	.	.	.	.	.	.	.	.	.	.	.
!	!LO:SIC:v:n=2:s=32a#	!	!	!	!	!	!	!	!	!	!	!	!	!	!	!
32FF# 32CC# 32FFF#/	32dd# 32a 32f#/	.	.	.	.	.	.	.	.	.	.	.	.	.	.	.
!	!LO:SIC:v:n=2:s=32a#	!	!	!	!	!	!	!	!	!	!	!	!	!	!	!
32FF# 32CC# 32FFF#/	32dd#JJJ 32a 32f#/	.	.	.	.	.	.	.	.	.	.	.	.	.	.	.
32FF# 32CC# 32FFF#/	8cc#/L|	.	.	.	.	.	.	.	.	.	.	.	.	.	.	.
32FF# 32CC# 32FFF#/	.	.	.	.	.	.	.	.	.	.	.	.	.	.	.	.
32FF# 32CC# 32FFF#/	.	.	.	.	.	.	.	.	.	.	.	.	.	.	.	.
32FF# 32CC# 32FFF#/	.	.	.	.	.	.	.	.	.	.	.	.	.	.	.	.
!	!LO:SIC:v:s=8a#/J|	!	!	!	!	!	!	!	!	!	!	!	!	!	!	!
32FF# 32CC# 32FFF#/	8a/J|	.	.	.	.	.	.	.	.	.	.	.	.	.	.	.
32FF# 32CC# 32FFF#/	.	.	.	.	.	.	.	.	.	.	.	.	.	.	.	.
32FF# 32CC# 32FFF#/	.	.	.	.	.	.	.	.	.	.	.	.	.	.	.	.
32FF#JJJ 32CC# 32FFF#/	.	.	.	.	.	.	.	.	.	.	.	.	.	.	.	.
*Xrep	*	*	*	*	*	*	*	*	*	*	*	*	*	*	*	*
=57	=57	=57	=57	=57	=57	=57	=57	=57	=57	=57	=57	=57	=57	=57	=57	=57
8FF# 8CC# 8FFF#/	8f#/	.	1ryy	.	4FF#/	.	.	4F#/	.	.	4f#/	.	.	4f#/	-ni	.
*X8ba	*	*	*	*	*	*	*	*	*	*	*	*	*	*	*	*
8r	8r	.	.	.	.	.	.	.	.	.	.	.	.	.	.	.
!	!LO:TX:a:i:t=molto ralent.	!	!	!	!	!	!	!	!	!	!	!	!	!	!	!
4D# 4DD#\	4f# 4F#<^^>/	.	.	.	4r	.	.	4r	.	.	4r	.	.	4r	.	.
!	!LO:SIC:v:n=2:s=4e#	!	!	!	!	!	!	!	!	!	!	!	!	!	!	!
!	!LO:SIC:v:n=3:s=4A#<	!	!	!	!	!	!	!	!	!	!	!	!	!	!	!
4C# 4CC#\	4f# 4e 4A< 4F#<^^>/	.	.	.	2r	.	.	2r	.	.	2r	.	.	2r	.	.
4BB 4BBB\	4f# 4d# 4B< 4G#< 4F#<^^>/	.	.	.	.	.	.	.	.	.	.	.	.	.	.	.
=58	=58	=58	=58	=58	=58	=58	=58	=58	=58	=58	=58	=58	=58	=58	=58	=58
2AA# 2AAA#\	2f# 2c# 2F#<^^>/	.	1ryy	.	1r	.	.	1r	.	.	1r	.	.	1r	.	.
2GG# 2GGG#TT\	2f# 2c# 2B 2F#<^^>/	.	.	.	.	.	.	.	.	.	.	.	.	.	.	.
16qqFF#/LL@	.	.	.	.	.	.	.	.	.	.	.	.	.	.	.	.
16qqGG#/JJ@	.	.	.	.	.	.	.	.	.	.	.	.	.	.	.	.
=59	=59	=59	=59	=59	=59	=59	=59	=59	=59	=59	=59	=59	=59	=59	=59	=59
!	!LO:SIC:v:n=1:s=1a#	!	!	!	!	!	!	!	!	!	!	!	!	!	!	!
!	!LO:SIC:v:n=4:s=1A#<;	!	!	!	!	!	!	!	!	!	!	!	!	!	!	!
1FF# 1FFF#	1a 1f# 1c# 1A<;	.	1ryy	.	1r;	.	.	1r;	.	.	1r;	.	.	1r;	.	.
==	==	==	==	==	==	==	==	==	==	==	==	==	==	==	==	==
*-	*-	*-	*-	*-	*-	*-	*-	*-	*-	*-	*-	*-	*-	*-	*-	*-
!!!system-decoration: [(g1)]{s5,p6}
!!!RDF**kern: > = above
!!!RDF**kern: < = below
!!!RDF**kern: @ = market note, color=blue
!!!ENC: Katarzyna Serwa
!!!END: 2021-08-19
!!!ENC: Marta Lawrence
!!!END: 2021-10-03
